RahulR666/Data_Driven_IK_3D/seven_link_dataset(2d).csv
theta1,theta2,theta3,theta4,theta5,theta6,theta7,x,y,phi
1.93,-0.62,1.18,1.05,-0.28,0.39,-2.9,-7.36,5.49,42.97
0.78,-0.82,0.86,1.25,-2.58,-0.21,-2.75,6.48,3.62,-198.82
0.16,-1.39,-0.26,2.21,-2.84,0.98,-1.11,3.55,-9.15,-128.92
0.88,-2.12,-1.2,3.1,-0.37,1.06,-1.89,7.56,1.35,-30.94
3.02,-1.48,-0.07,1.37,-0.87,0.15,1.34,-9.19,9.69,198.24
0.55,-1.13,-1.43,0.17,-2.88,-1.25,-2.72,3.04,-3.14,-497.9
2.68,-0.33,-1.14,1.86,-2.43,-0.08,-1.05,0.72,7.05,-28.07
3.01,-1.12,-1.35,2.8,-2.94,-0.04,0.54,2.63,7.31,51.57
0.36,-1.97,0.06,1.8,-0.02,1.52,-2.92,7.68,-2.77,-67.04
1.0,-2.15,-1.3,2.37,-0.72,0.55,1.03,8.88,-2.63,44.69
0.3,-3.13,1.48,1.3,-2.31,1.41,-2.62,0.46,-5.35,-204.55
2.95,-3.09,0.31,2.02,-0.5,0.46,-2.27,1.85,6.86,-6.88
1.47,-1.13,1.08,1.41,-0.59,0.79,1.39,-4.15,6.4,253.25
0.57,-2.16,-1.54,2.86,-2.26,1.34,-0.99,-0.58,-7.65,-124.9
0.37,-1.26,0.93,0.7,-0.37,1.17,-0.1,10.98,6.63,82.51
1.92,-0.47,-0.46,0.11,-0.12,-0.34,-2.49,4.66,10.32,-106.0
2.78,-2.56,-0.17,2.11,-0.76,0.66,-3.13,1.66,6.11,-61.31
1.97,-1.12,1.44,1.98,-1.29,-0.29,1.41,-8.19,3.25,234.91
1.34,-3.12,-0.76,1.96,-2.64,1.38,-2.26,-4.51,-2.97,-234.91
0.02,-1.38,-0.29,0.17,-0.53,0.42,-3.04,1.73,-9.65,-265.28
2.43,-2.67,-1.24,0.49,-0.81,1.04,-0.85,3.28,-10.2,-92.25
0.6,-2.72,0.88,1.0,-2.8,1.5,-1.93,-0.78,-5.63,-198.82
2.12,-1.35,-1.44,0.56,-0.08,-0.56,-2.38,6.72,-0.16,-179.34
1.22,-0.92,-1.56,2.71,-1.6,-1.04,1.02,10.18,0.07,-9.74
0.94,-1.57,0.47,0.51,-0.44,-1.09,1.53,14.1,-0.67,20.05
2.27,-1.32,0.19,1.63,-1.46,0.25,-1.19,1.56,12.95,21.2
2.35,-0.71,0.49,2.19,-2.36,0.53,0.72,-9.64,7.74,183.92
0.49,-1.45,-1.53,0.21,-2.05,-1.3,-2.5,0.39,-2.85,-465.81
0.1,-1.54,0.95,1.64,-1.35,-0.75,-1.01,9.0,-5.97,-112.3
2.0,-0.15,-0.71,3.07,-2.81,-1.09,-1.22,2.45,6.01,-52.14
1.58,-1.37,0.34,0.25,-0.66,1.41,0.75,7.16,10.83,131.78
2.68,-0.56,1.06,1.32,-0.85,0.93,-2.52,-10.26,-0.78,118.03
1.06,-2.55,0.61,0.9,-3.02,0.92,-0.78,-0.58,-5.42,-163.87
2.11,-1.42,0.24,2.99,-3.01,-0.19,-2.99,2.16,5.69,-130.06
1.25,-3.07,-0.74,0.58,-0.59,-0.17,1.56,-6.36,-8.36,-67.61
1.96,-1.6,-0.38,1.35,-1.08,-0.81,0.5,11.52,4.71,-3.44
0.45,-2.05,-0.52,1.97,-0.95,-1.31,-2.17,2.29,-5.34,-262.41
2.85,-1.34,-0.88,1.48,-0.88,-0.97,-1.06,3.49,8.04,-45.84
1.52,-1.88,-0.74,0.58,-2.56,-0.57,0.33,-1.37,-0.35,-190.22
3.0,-2.53,-1.55,1.74,-0.42,0.56,1.49,5.43,5.08,131.21
1.07,-0.0,0.36,2.7,-1.8,-0.48,0.07,-1.89,11.34,110.01
1.44,-0.64,0.89,1.92,-3.11,0.34,0.57,3.8,11.15,80.79
1.73,-1.76,-0.43,0.66,-2.21,-0.22,-2.4,3.99,0.03,-265.28
2.06,-1.08,1.47,0.91,-0.05,-0.92,0.2,-10.57,7.93,148.4
1.07,-0.81,0.52,2.9,-0.7,-1.17,-0.46,0.74,8.58,77.35
3.09,-3.09,1.08,2.77,-3.09,1.05,-0.53,1.22,7.25,73.34
0.8,-0.52,-0.25,1.37,-3.0,-0.46,-0.47,3.77,-1.12,-144.96
1.84,-0.69,-1.56,2.81,-2.74,1.02,-0.1,7.2,7.49,33.23
0.64,-1.75,-1.34,1.85,-0.77,-0.36,-3.09,3.63,-6.18,-276.17
1.01,-1.33,1.19,0.68,-0.34,-1.21,-1.57,8.75,5.58,-89.95
0.25,-2.81,-0.27,2.89,-0.43,1.47,-1.99,5.49,-1.99,-50.99
2.09,-0.78,-0.25,3.05,-0.85,1.06,-0.36,-5.94,0.28,226.89
2.05,-1.71,-1.1,2.92,-0.67,0.3,-2.89,2.42,6.11,-63.03
2.19,-2.17,1.21,1.9,-2.28,-0.75,-2.46,1.75,4.84,-135.22
0.99,-1.08,0.49,2.69,-2.25,-0.5,0.94,8.41,8.06,73.34
1.54,-2.09,-0.03,2.12,-1.18,-1.31,-2.34,5.7,1.54,-188.5
2.72,-2.53,-0.46,0.41,-1.22,-0.4,1.19,8.86,-4.23,-16.62
3.05,-2.27,0.01,2.78,-0.12,-0.38,-0.95,-7.41,4.28,121.47
1.94,-0.14,-0.54,2.31,-0.93,-0.39,-2.09,-4.27,9.65,9.17
0.64,-3.0,-1.11,1.15,-0.2,1.17,0.83,-3.15,-6.43,-29.79
2.37,-2.95,1.23,3.12,-1.42,-0.62,0.1,-2.53,7.08,104.85
0.79,-2.46,-1.45,2.89,-1.44,-1.11,-0.87,-3.32,-3.49,-209.13
1.6,-1.29,0.82,0.72,-0.36,-0.77,0.9,4.64,14.56,92.82
0.65,-0.7,-0.86,1.79,-0.67,0.41,-2.56,11.19,0.98,-111.15
0.2,-2.65,-0.98,0.85,-0.5,0.29,-0.76,-11.12,-1.74,-203.4
1.33,-2.32,-0.73,1.23,-2.72,-0.61,1.5,-2.34,-3.4,-132.93
0.92,-1.49,-0.31,2.05,-1.8,0.12,-2.81,7.93,-1.23,-190.22
0.03,-2.1,0.53,1.49,-0.48,-0.66,-2.64,5.03,-6.74,-219.44
1.95,-1.56,-0.02,1.37,-0.97,-0.61,-0.56,9.86,7.81,-22.92
1.57,-2.97,-0.29,1.0,-0.57,-1.18,-2.52,1.53,-5.61,-284.19
1.72,-1.91,-0.52,3.11,-0.15,-1.34,-2.37,2.38,3.49,-83.65
1.43,-0.52,1.02,1.0,-2.13,-1.19,0.03,4.96,7.28,-20.63
2.86,-1.77,-0.52,1.44,-2.71,-1.42,-0.34,-1.54,1.21,-140.95
2.77,-3.09,-1.22,2.69,-1.36,1.4,-2.93,4.1,-0.76,-99.69
2.54,-1.24,-1.36,0.68,-2.63,-1.36,0.35,-2.84,3.13,-173.03
0.75,-0.37,-1.32,1.44,-2.83,-1.35,-0.26,2.21,3.07,-225.75
2.5,-1.09,-0.66,0.63,-0.14,-0.53,-2.0,4.1,9.71,-73.91
2.41,-2.71,-1.36,1.36,-0.14,-0.65,-1.51,3.97,-6.87,-148.97
3.11,-1.16,0.02,2.38,-1.83,-1.5,-0.23,-4.25,7.73,45.26
0.8,-0.52,0.49,0.37,-2.47,0.26,1.07,11.28,1.88,0.0
2.61,-0.34,-1.43,0.52,-1.31,-1.34,-0.83,0.31,3.08,-121.47
2.32,-2.8,1.55,1.29,-0.45,0.54,-2.1,-0.47,9.44,20.05
2.48,-1.47,-0.21,0.97,-3.09,-1.48,-1.14,-2.88,6.43,-225.75
0.36,-3.14,-0.81,1.2,-0.45,-0.8,0.13,-10.99,0.73,-201.11
2.39,-0.12,-1.45,2.49,-0.08,-0.35,-1.2,-9.37,7.94,96.26
0.36,-2.8,-1.41,3.03,-1.92,-1.51,-2.11,-0.69,0.13,-364.4
3.05,-2.75,1.18,2.57,-1.82,0.59,-2.46,-2.98,5.13,20.63
1.03,-0.21,-1.43,0.56,-0.26,1.23,-2.32,11.86,1.18,-80.21
1.85,-2.76,1.1,2.99,-0.54,-0.32,-2.43,-0.61,3.56,-6.3
1.77,-1.09,-0.97,1.35,-2.14,1.0,-0.65,10.6,1.42,-41.83
2.96,-0.53,-1.04,0.04,-0.06,1.13,0.67,-7.56,10.89,181.63
1.97,-1.09,0.34,1.54,-1.83,-0.05,-2.84,1.3,9.13,-112.3
0.1,-1.16,1.32,0.55,-0.57,1.06,-2.03,12.81,1.86,-41.83
1.3,-1.43,-1.2,0.5,-3.04,-0.73,0.09,2.78,4.41,-258.4
0.28,-2.65,1.53,1.35,-0.65,-0.99,-0.53,7.78,-6.79,-95.11
2.7,-2.39,-1.5,0.81,-0.25,1.49,-0.5,9.36,-0.11,20.63
1.16,-2.99,-1.52,0.83,-3.12,-1.5,0.77,2.01,-1.67,-364.97
0.77,-2.19,1.44,1.47,-2.04,-0.87,-0.64,6.2,-4.17,-118.03
1.33,-0.3,-1.51,1.24,-1.0,1.55,-2.21,10.54,5.0,-51.57
0.73,-1.39,0.02,1.85,-2.03,1.21,0.3,12.67,1.69,39.53
2.89,-1.72,-0.16,2.64,-1.59,0.7,-2.83,-3.3,6.79,-4.01
0.12,-3.13,-1.34,2.16,-2.21,0.44,-0.74,-4.84,6.98,-269.29
2.31,-2.71,1.43,1.71,-0.76,-1.36,0.19,2.37,9.55,46.41
2.88,-0.35,0.79,1.29,-0.08,-1.21,0.1,-12.5,-4.44,195.95
3.08,-3.12,1.54,0.99,-1.89,0.89,0.2,0.16,10.45,96.83
2.26,-1.97,-1.0,0.72,-2.9,1.23,-0.98,0.37,-3.27,-151.26
2.88,-1.19,0.75,2.95,-0.8,-0.72,-0.19,-7.37,-2.63,210.85
1.54,-1.99,-1.06,1.2,-3.07,-1.14,-2.06,4.34,0.47,-377.01
1.49,-2.76,-1.44,0.32,-0.57,0.35,-2.44,-6.94,-2.01,-289.34
2.65,-2.59,-1.12,0.04,-0.45,0.76,-2.11,2.6,-7.89,-161.57
1.13,-3.02,0.29,1.69,-2.57,0.3,-2.87,0.12,-3.61,-289.34
0.55,-0.72,0.37,2.13,-0.45,1.16,-1.9,3.12,8.1,65.32
0.54,-1.34,0.59,3.13,-0.83,-0.98,1.11,2.25,5.92,127.2
0.46,-0.63,1.34,0.52,-2.36,-0.57,-1.44,5.92,0.44,-153.55
2.2,-1.73,-1.16,1.86,-2.97,-1.27,-1.6,0.49,3.75,-267.57
0.22,-1.66,-0.11,0.09,-0.17,0.24,-1.99,0.97,-11.28,-193.66
2.63,-2.98,-0.74,2.62,-0.62,1.13,-0.16,1.07,7.23,107.72
1.79,-2.04,-1.46,2.88,-2.14,-0.16,-0.78,4.16,-5.03,-109.43
2.72,-0.33,1.49,1.38,-0.58,0.65,1.36,-0.99,-4.63,383.31
2.43,-1.54,0.19,1.52,-2.11,-0.01,1.1,3.12,11.9,90.53
2.56,-3.06,1.03,2.26,-0.13,-1.21,0.4,-2.69,8.34,106.0
1.82,-1.67,-0.14,0.98,-1.62,0.65,0.15,12.71,3.91,9.74
2.51,-0.46,-0.55,1.15,-2.96,-0.56,-0.4,-0.46,2.31,-72.77
0.97,-0.71,0.17,1.28,-1.0,0.37,0.95,7.72,12.3,116.31
2.23,-0.74,-1.07,1.06,-0.92,-0.86,1.34,6.95,10.72,59.59
2.08,-0.99,1.55,0.74,-0.79,1.01,-1.48,-10.36,7.35,121.47
2.38,-2.85,0.53,0.43,-3.1,-0.64,0.17,-2.01,0.77,-176.47
2.66,-1.25,-0.04,0.44,-1.53,0.31,-0.73,5.05,10.24,-8.02
0.35,-0.61,-0.41,2.81,-1.86,-0.32,-2.12,8.89,-0.72,-123.76
1.82,-1.53,1.4,0.88,-0.89,-0.18,1.06,-2.81,13.32,146.68
2.31,-0.71,-1.27,0.87,-2.59,-0.46,1.07,3.05,0.87,-44.69
1.56,-0.43,-0.42,2.37,-0.56,-0.51,-1.24,-0.81,12.0,44.12
1.79,-1.57,-0.9,1.95,-1.65,-0.72,-2.28,5.61,1.24,-193.66
0.81,-0.66,-0.88,2.09,-1.8,-0.4,-1.62,8.57,-1.54,-140.95
1.51,-1.48,1.36,1.75,-0.64,1.02,0.76,-4.77,3.34,245.23
2.33,-2.56,-1.23,1.34,-1.38,-0.67,1.3,3.85,-8.01,-49.85
2.47,-0.21,1.14,0.86,-0.9,0.39,0.09,-13.46,-2.98,220.02
0.65,-3.05,1.16,0.58,-1.91,1.06,1.07,3.24,-8.99,-25.21
0.98,-2.55,0.47,0.37,-2.08,-0.0,-0.32,-2.84,-5.98,-179.34
1.51,-2.16,-0.2,1.6,-0.33,0.27,0.69,10.31,5.87,79.07
2.35,-2.74,-1.04,2.83,-0.47,-1.16,-0.6,6.95,0.41,-47.56
2.06,-3.03,1.26,1.04,-0.37,-0.34,-1.81,7.63,4.47,-68.18
0.08,-3.11,1.53,1.26,-2.11,0.31,-3.13,0.83,-4.93,-296.22
2.86,-2.14,-0.52,2.54,-1.61,1.42,0.31,-3.78,8.17,163.87
0.26,-2.13,-1.23,1.04,-0.23,1.3,0.43,-0.15,-9.36,-32.09
0.19,-0.32,-0.89,0.53,-2.29,0.12,-2.92,5.8,-3.58,-319.71
3.0,-3.0,-0.34,0.46,-1.81,-1.25,1.34,2.04,-5.66,-91.67
2.18,-1.04,-0.01,2.68,-0.09,0.91,-2.7,-4.46,3.52,110.58
0.9,-0.91,-0.47,2.18,-2.96,1.47,-2.71,7.16,-0.1,-143.24
2.15,-2.39,0.21,1.98,-2.93,-1.1,-0.71,0.46,-1.37,-159.86
1.97,-0.09,1.21,2.34,-0.09,-0.14,-2.75,-1.87,0.29,140.37
1.25,-2.44,-1.29,0.53,-0.16,-1.44,1.0,-6.83,-6.35,-146.1
2.09,-0.77,-1.01,2.13,-0.34,-0.64,0.39,-1.82,14.01,106.0
1.18,-0.81,0.46,2.4,-2.7,1.25,-2.69,5.65,6.58,-52.14
1.35,-2.49,1.3,0.72,-1.47,0.06,-2.34,7.48,-0.83,-164.44
0.9,-2.66,-0.06,0.57,-0.74,-1.11,0.8,-3.93,-9.54,-131.78
3.07,-2.28,-1.06,2.91,-1.37,0.28,0.94,-1.71,8.89,142.67
2.89,-2.14,-0.91,0.87,-2.92,1.33,-0.37,4.66,-2.75,-71.62
2.95,-1.54,-0.16,0.24,-1.64,0.01,-1.93,2.69,4.89,-118.6
0.0,-0.18,-0.91,0.9,-2.8,-1.35,0.5,3.28,0.42,-220.02
0.8,-1.32,-0.51,0.82,-1.31,-0.47,-1.83,4.81,-5.32,-218.87
0.02,-1.2,-0.36,2.11,-0.37,-1.41,-3.02,7.81,-3.04,-242.36
1.01,-1.22,1.31,1.77,-2.27,-1.56,0.9,8.49,3.71,-3.44
1.8,-2.81,-0.74,1.48,-2.47,-1.55,-0.79,0.3,0.83,-291.06
2.49,-2.17,1.5,3.05,-2.67,-1.5,-0.55,3.07,6.26,8.59
2.8,-0.19,1.34,2.17,-1.88,0.1,0.26,-6.1,-7.15,263.56
1.67,-2.32,0.13,2.71,-0.58,-0.2,-2.35,4.24,4.72,-53.86
1.71,-0.87,0.34,2.74,-1.83,0.69,1.56,-3.99,5.62,248.66
3.01,-1.21,0.85,0.3,-0.77,-0.32,-2.35,-7.64,7.69,-28.07
0.7,-2.18,1.08,2.77,-2.92,0.08,-0.91,7.48,-5.0,-79.07
2.93,-2.37,0.45,1.48,-1.26,-1.36,-0.53,4.31,5.99,-37.82
0.63,-2.92,1.26,0.12,-2.81,0.53,-2.62,0.83,-1.9,-332.89
2.62,-3.06,-0.65,2.43,-0.44,1.37,0.35,-0.4,5.52,150.11
1.14,-2.68,-0.02,0.14,-1.92,0.28,0.35,-5.69,-5.96,-155.27
1.7,-1.94,-1.41,0.1,-1.94,-1.34,1.09,-2.16,1.64,-214.29
1.39,-2.04,0.41,0.79,-1.1,-0.14,-1.82,9.04,-2.72,-143.81
2.51,-3.04,0.71,1.5,-1.67,0.52,-2.64,5.7,2.29,-120.89
0.66,-0.38,0.36,1.43,-0.65,-0.12,0.12,6.61,13.26,81.36
2.46,-2.42,-0.55,2.65,-1.93,-0.97,-2.03,3.3,0.5,-159.86
2.49,-2.07,0.14,1.37,-0.21,0.47,-0.32,-1.03,13.1,107.14
1.45,-1.86,1.3,3.0,-2.78,-0.54,-2.99,3.68,3.66,-138.66
2.98,-0.38,0.62,1.14,-1.52,0.9,-1.24,-14.42,-0.02,143.24
0.73,-2.71,-0.15,2.6,-3.09,0.91,-2.91,-0.97,-2.85,-264.71
2.83,-1.57,-1.54,1.49,-2.71,-0.39,1.29,3.13,-1.48,-34.38
1.55,-1.84,-1.07,2.64,-2.57,0.9,1.1,8.59,0.01,40.68
1.19,-1.77,-0.87,2.73,-2.69,-1.35,-0.41,-0.38,-2.46,-181.63
2.88,-2.48,-1.1,2.63,-2.02,0.33,-2.47,4.31,0.74,-127.77
2.67,-2.39,-1.2,0.34,-1.45,0.49,0.42,3.84,-8.52,-64.17
1.81,-0.42,-1.12,1.95,-1.82,0.01,0.79,6.26,11.85,68.75
0.01,-0.54,0.24,2.96,-0.06,0.36,0.77,-1.86,-0.53,214.29
1.75,-2.2,0.06,1.71,-1.48,-0.17,-1.04,10.07,-0.81,-78.5
2.99,-3.14,-1.44,0.86,-3.08,0.77,-2.85,-0.32,-1.91,-337.47
2.97,-1.54,-0.27,0.02,-1.25,-0.72,-1.79,1.98,4.22,-147.82
2.47,-2.43,1.28,1.27,-2.64,-0.11,0.54,6.32,5.79,21.77
0.99,-0.49,0.8,0.49,-1.61,0.73,1.21,6.38,12.69,121.47
0.76,-2.39,1.5,1.56,-2.89,-0.35,-1.89,2.06,-2.21,-211.99
2.71,-1.57,1.55,1.08,-0.06,1.35,-3.06,-7.79,1.52,114.59
2.06,-2.6,-0.08,0.2,-0.46,-1.23,1.13,6.99,-7.7,-56.15
2.0,-1.6,-1.37,0.3,-1.51,-0.94,-2.61,2.83,-1.16,-328.3
2.07,-1.56,-0.0,2.51,-1.68,0.41,-0.79,2.25,11.88,55.0
1.63,-2.31,0.22,1.16,-2.26,-1.28,-0.84,1.44,-0.54,-210.85
0.46,-2.5,0.18,1.77,-1.96,-0.35,0.88,0.02,-10.14,-87.09
2.67,-1.07,1.0,2.45,-0.88,1.0,-1.39,-5.81,-3.31,216.58
2.32,-2.26,1.18,0.38,-0.63,1.45,0.5,-1.51,11.05,168.45
1.46,-3.03,-0.7,0.56,-1.26,-0.81,1.48,-7.81,-5.21,-131.78
1.75,-0.82,0.12,0.83,-1.24,-0.09,1.12,5.42,14.3,95.68
2.65,-0.9,-0.03,2.09,-0.24,-0.84,-0.71,-10.63,6.78,115.74
1.41,-2.04,0.46,2.73,-1.19,-0.94,-1.08,7.56,3.92,-37.24
0.61,-1.43,-0.19,1.02,-2.7,-1.05,-0.26,1.64,-0.28,-229.18
3.13,-1.3,1.51,1.79,-2.53,-0.58,-0.62,-7.38,5.67,80.21
2.58,-1.34,0.87,2.2,-1.32,-1.16,-2.88,-5.43,4.17,-60.16
2.52,-1.84,-0.45,0.24,-2.99,-1.49,-2.3,3.43,5.12,-361.54
0.48,-2.09,-0.21,2.55,-0.6,-0.49,-3.05,5.77,-1.99,-195.38
0.63,-1.63,1.1,1.29,-0.45,1.28,-0.24,5.28,8.38,113.45
0.76,-1.97,1.04,0.99,-0.4,-1.48,-2.62,8.22,0.91,-210.85
2.76,-2.58,-0.8,3.1,-1.07,0.31,-0.89,1.92,8.25,47.56
1.17,-2.95,-0.49,2.65,-1.78,1.12,1.17,5.57,-2.34,50.99
0.0,-2.47,0.98,0.38,-1.6,0.54,-2.0,-3.11,-7.26,-238.92
2.36,-0.37,-0.97,0.03,-2.26,-0.87,-1.23,-3.04,4.24,-189.65
0.76,-1.45,-1.15,1.72,-0.7,-0.27,-1.57,6.2,-7.78,-152.41
2.67,-0.37,-0.44,0.81,-1.79,1.16,-1.03,-5.04,12.81,57.87
0.59,-0.23,-0.31,1.67,-1.44,-0.33,-0.14,13.9,4.96,-10.89
0.07,-1.75,0.12,0.82,-1.16,-0.41,0.14,0.19,-12.77,-124.33
3.13,-2.26,0.59,1.85,-0.79,-0.42,0.02,-7.68,9.75,121.47
2.27,-0.33,0.67,0.43,-2.85,1.06,-1.27,-1.41,8.56,-1.15
1.93,-1.08,1.3,1.08,-0.28,0.86,-1.27,-9.56,6.43,145.53
2.85,-1.3,1.47,1.21,-2.66,0.42,1.39,-9.43,5.5,193.66
2.54,-0.88,-1.4,3.12,-1.11,0.85,0.15,-8.88,5.6,187.36
2.39,-3.12,-0.63,2.96,-0.2,1.25,-3.04,1.02,2.79,-22.35
0.6,-1.61,-0.17,2.6,-0.44,0.45,-0.7,8.33,5.67,41.83
1.31,-2.25,0.46,2.92,-2.89,-0.7,-3.13,4.65,-0.24,-245.23
2.25,-0.55,-1.32,1.65,-0.92,-0.54,-2.82,0.97,9.24,-128.92
1.33,-0.89,0.91,1.23,-0.56,0.95,-3.14,0.2,9.52,-9.74
1.95,-0.64,1.54,2.31,-1.79,0.53,-1.9,-6.88,3.19,114.59
1.51,-0.72,-0.11,0.19,-1.04,-0.73,-0.92,8.87,2.95,-104.28
1.94,-2.43,0.91,1.03,-3.07,0.13,-2.95,3.29,2.08,-254.39
1.21,-0.65,1.22,0.84,-2.82,1.23,-1.59,6.17,7.68,-32.09
1.25,-2.16,-0.89,2.34,-1.35,-0.46,-2.8,4.87,-2.95,-233.19
1.21,-2.73,1.54,0.25,-3.01,0.73,-1.62,0.35,-1.51,-207.98
1.33,-2.1,-1.56,3.02,-1.01,-1.08,0.65,7.23,-4.49,-42.97
1.7,-2.86,-0.4,1.23,-0.47,0.7,0.47,9.63,-4.26,21.2
1.87,-1.86,0.68,0.59,-0.59,1.04,1.55,3.46,10.12,187.93
0.69,-1.53,1.24,0.59,-2.35,-1.04,-2.37,6.09,1.16,-273.3
0.59,-2.18,0.86,0.16,-0.94,1.15,-2.15,6.47,-8.98,-143.81
1.06,-0.39,-0.01,1.92,-2.28,1.23,0.92,3.61,11.43,140.37
3.09,-2.72,0.81,2.52,-2.79,-0.22,1.55,0.58,7.55,128.34
1.73,-1.46,-1.28,1.35,-2.45,-1.19,1.26,0.82,-2.13,-116.88
2.01,-0.01,-0.09,3.12,-2.67,0.39,-0.63,-7.54,9.37,121.47
2.18,-3.14,1.27,0.75,-2.13,0.91,-2.85,4.8,0.03,-172.46
2.5,-0.6,-0.74,1.46,-2.55,-0.84,-2.64,-2.1,6.5,-195.38
2.74,-1.49,0.62,2.38,-2.5,-0.39,1.53,-5.71,9.03,165.58
1.65,-2.85,-0.62,0.53,-0.73,-0.27,-1.48,-3.97,-7.33,-216.01
0.26,-1.43,1.46,1.77,-1.4,-1.52,-1.87,5.93,-0.1,-156.42
0.51,-1.0,1.06,2.56,-1.48,0.47,-0.31,1.9,8.48,103.71
3.13,-0.16,1.41,2.43,-0.63,0.62,-0.28,3.47,0.91,373.57
1.39,-2.77,1.09,1.61,-1.89,0.24,-2.51,6.02,-1.19,-162.72
3.04,-0.58,1.33,0.68,-2.39,-0.43,-2.03,-6.12,1.64,-21.77
1.71,-2.88,0.76,0.74,-2.39,0.05,1.29,4.93,-6.13,-41.25
0.65,-2.87,-1.16,2.96,-0.73,-1.12,-0.12,-2.08,-6.81,-136.94
1.54,-2.66,0.61,2.47,-2.79,-1.17,-0.75,0.74,-3.73,-157.56
0.35,-0.58,-1.41,1.57,-2.21,-0.5,-0.92,1.02,-3.84,-211.99
0.72,-1.94,-1.04,0.08,-0.73,-0.19,0.42,-7.45,-6.47,-153.55
2.18,-3.1,-0.5,0.88,-1.28,-1.44,1.38,-1.26,-8.2,-107.72
0.2,-3.02,-1.48,0.71,-0.03,-0.21,-2.6,-4.85,5.45,-368.41
1.53,-0.14,0.37,2.64,-0.42,-0.4,-2.58,-3.27,4.22,57.3
3.06,-0.47,-1.21,2.48,-2.69,1.21,-2.27,-4.38,6.62,6.3
0.06,-2.83,0.62,1.41,-1.66,1.49,0.46,2.59,-9.29,-25.78
1.7,-2.93,-0.1,1.66,-2.3,1.48,-2.43,2.27,-5.52,-167.3
2.0,-0.03,0.88,1.95,-2.53,-0.91,0.01,-4.78,9.61,78.5
1.44,-2.76,0.46,2.09,-0.76,-0.84,0.73,10.31,1.63,20.63
1.49,-0.08,1.01,2.57,-1.72,-0.37,-1.54,-4.97,6.93,77.92
1.4,-2.7,0.64,0.09,-2.49,1.35,-0.62,0.61,-7.32,-133.5
1.08,-2.68,-1.38,0.09,-0.46,-1.39,1.03,-8.27,3.04,-212.57
0.95,-0.32,1.17,2.73,-2.07,0.38,0.14,-4.34,6.2,170.74
0.11,-0.28,-1.47,1.56,-0.03,0.95,-2.11,12.16,-3.64,-72.77
0.57,-1.86,-0.51,1.07,-3.1,1.42,-2.68,1.22,-2.91,-291.64
1.71,-2.51,-1.49,1.27,-1.5,0.68,-3.01,-1.3,-4.72,-277.88
2.79,-0.47,-0.11,1.94,-1.14,0.1,-1.85,-11.09,5.37,72.19
1.86,-2.69,0.74,1.41,-0.01,0.63,-2.04,6.31,7.25,-5.73
0.18,-0.7,-0.36,2.72,-1.63,1.07,0.82,7.46,4.76,120.32
0.61,-2.52,1.01,1.53,-2.16,-0.47,-1.94,2.11,-4.39,-225.75
0.71,-2.17,-1.19,2.65,-0.48,-0.98,0.96,7.16,-6.87,-28.65
3.14,-0.17,0.98,2.76,-2.01,0.35,0.07,-2.63,-7.5,293.35
1.34,-2.51,0.65,0.08,-2.32,0.08,-1.53,0.22,-2.03,-241.22
2.69,-0.63,1.55,0.14,-0.58,1.37,-1.4,-13.13,-1.79,179.91
3.03,-1.15,-1.29,0.52,-2.86,-0.29,-1.77,-3.59,3.15,-218.3
2.9,-0.67,0.75,1.51,-1.08,0.66,-1.04,-13.37,-1.85,173.61
0.15,-1.21,1.01,3.1,-1.84,-1.56,1.55,7.84,2.11,68.75
2.77,-0.83,-0.51,2.28,-1.22,-0.27,0.94,-10.99,7.83,181.05
2.0,-2.3,-0.54,1.56,-0.41,-0.65,1.38,10.9,3.41,59.59
0.0,-2.82,-0.23,0.24,-0.4,-1.57,-0.13,-6.56,3.28,-281.32
1.72,-1.59,-0.21,2.38,-1.14,-1.01,0.71,8.03,9.02,49.27
0.74,-2.1,-0.1,0.08,-2.4,1.38,-1.66,-2.25,-3.91,-232.62
0.52,-1.98,-1.45,2.7,-1.76,-0.46,-0.83,-2.89,-5.98,-186.78
2.97,-1.77,0.63,0.85,-1.55,-1.1,0.58,1.18,10.06,34.95
1.43,-0.83,0.73,2.23,-0.33,-1.33,-1.39,-0.39,8.66,29.22
1.95,-0.07,0.31,3.07,-2.84,-1.33,0.22,-1.91,10.89,75.06
1.57,-0.21,-0.02,0.53,-2.31,1.31,-0.64,6.67,11.18,13.18
1.98,-0.56,1.06,2.76,-1.94,1.45,-0.31,-4.38,-1.16,254.39
2.95,-1.08,0.27,2.48,-0.29,0.16,-1.51,-8.72,-1.87,170.74
2.38,-1.83,-0.29,0.05,-2.63,1.24,-1.69,2.27,-0.51,-158.71
0.59,-1.46,0.16,0.38,-0.23,-0.62,0.81,13.35,-7.5,-21.2
2.88,-1.96,-0.67,0.99,-2.55,-0.44,-1.28,0.05,0.46,-173.61
2.06,-0.6,-1.53,3.01,-1.6,-1.05,1.17,2.39,10.65,83.65
2.98,-0.07,-0.53,1.45,-2.24,-0.11,0.67,-9.83,8.19,123.19
2.43,-1.05,-1.51,2.25,-2.02,-0.41,0.67,6.96,6.26,20.63
1.58,-0.47,1.32,0.44,-2.26,0.7,-2.36,0.72,8.72,-60.16
2.94,-1.04,0.45,3.1,-0.78,-0.73,0.49,-5.88,-3.89,253.82
1.19,-2.43,-0.57,2.06,-2.95,-0.75,1.04,-2.93,-3.83,-138.08
1.27,-0.33,0.62,2.68,-0.26,-1.48,-1.28,-1.71,6.67,69.9
0.0,-2.35,0.1,2.5,-0.13,1.42,-0.04,4.33,2.19,85.94
1.75,-0.68,-1.42,0.04,-2.75,-0.58,1.51,-0.53,1.91,-122.04
2.84,-0.85,-1.42,2.5,-1.42,-0.93,0.77,-1.91,11.19,85.37
2.84,-0.06,0.19,0.32,-2.16,0.86,-0.63,-9.09,8.67,77.92
1.15,-1.07,0.32,1.33,-0.9,-1.0,-0.13,11.96,6.61,-17.19
0.21,-1.55,-1.4,2.49,-1.4,0.36,1.25,6.13,-8.5,-2.29
2.62,-1.11,1.04,0.58,-0.58,0.42,1.25,-12.31,4.78,241.79
1.26,-2.78,-0.77,0.72,-2.82,0.53,1.44,-5.3,-2.13,-138.66
0.45,-1.28,0.84,3.11,-2.32,1.24,-2.87,6.24,1.5,-47.56
1.86,-0.27,-0.71,0.63,-0.53,0.74,-1.59,4.48,14.19,7.45
1.36,-1.52,1.18,0.19,-1.3,-0.37,-2.48,7.46,4.68,-168.45
2.81,-1.15,0.53,0.22,-1.27,0.27,-0.13,-3.74,14.14,73.34
0.54,-2.71,-0.92,1.66,-0.47,0.85,-1.18,-2.51,-9.89,-127.77
2.84,-1.59,0.37,2.34,-1.4,-0.49,0.8,-9.12,8.03,164.44
0.63,-0.46,-0.97,0.91,-0.13,-0.62,-3.06,11.1,0.16,-211.99
0.46,-2.99,-0.27,2.52,-0.69,0.11,0.89,5.78,-5.74,1.72
0.04,-2.47,1.24,0.22,-0.97,0.59,-0.33,2.32,-13.17,-96.26
2.91,-1.71,-0.75,1.34,-1.85,-0.45,0.66,7.33,5.43,8.59
0.88,-0.38,0.2,1.72,-1.95,-0.8,-0.01,10.77,5.88,-19.48
2.91,-2.29,0.48,2.98,-0.97,0.11,-2.55,-3.77,3.67,38.39
1.21,-1.24,-0.26,2.88,-1.48,-0.48,-2.95,5.08,4.74,-132.93
2.61,-1.11,0.97,1.19,-2.96,-1.53,-2.35,-5.01,3.94,-182.2
0.59,-0.79,0.61,1.53,-2.38,-0.45,-0.43,10.37,-1.21,-75.63
2.18,-2.73,-0.46,2.64,-0.56,-0.09,-1.4,6.76,4.37,-24.06
2.9,-2.9,1.23,2.34,-0.28,-0.03,-2.63,-4.3,2.72,36.1
1.18,-2.49,-0.98,2.35,-1.5,-0.52,-3.05,2.56,-4.24,-287.05
0.98,-1.22,0.0,0.31,-2.14,0.7,-2.44,6.08,-2.03,-218.3
0.65,-0.89,-1.46,1.91,-0.91,0.72,-1.42,11.38,-5.06,-80.21
3.06,-2.58,-1.55,2.95,-3.1,-1.5,0.59,-2.58,-3.94,-122.04
2.35,-2.35,-0.54,3.07,-2.82,-0.77,-3.08,3.1,1.13,-237.2
2.87,-0.77,-0.82,2.05,-2.39,1.29,-0.42,-6.06,11.18,103.71
0.47,-2.63,0.04,0.94,-3.12,-0.2,-1.75,1.46,-0.57,-358.1
2.76,-0.24,0.65,2.59,-1.11,1.52,0.63,-0.18,-0.48,389.61
1.52,-1.49,-0.14,0.75,-2.51,0.17,1.2,8.25,-2.28,-28.65
2.61,-1.49,-0.31,2.59,-2.23,1.55,-1.65,-1.86,10.21,61.31
0.93,-0.15,-1.13,0.01,-1.17,-0.24,-2.05,5.71,-1.35,-217.72
2.08,-2.13,1.18,0.4,-0.52,1.5,0.02,-0.29,11.85,144.96
3.06,-1.49,0.92,1.51,-0.92,1.51,0.58,-7.81,-2.24,296.22
2.72,-1.68,-0.84,2.99,-0.03,-1.33,-1.21,-2.17,7.38,35.52
1.11,-3.03,0.95,1.48,-0.84,1.25,-2.43,7.88,-2.27,-86.52
1.33,-2.89,0.41,2.55,-0.11,0.67,0.06,0.73,7.08,115.74
0.08,-2.44,-0.95,0.82,-1.86,0.98,-3.07,-4.59,-0.15,-368.98
1.94,-3.07,0.32,0.81,-1.76,0.91,0.87,8.07,-6.02,1.15
3.0,-2.46,1.25,1.56,-0.22,0.1,-2.05,-7.36,5.68,67.61
1.05,-1.8,-1.17,0.82,-2.96,1.44,-3.13,1.82,-2.1,-329.45
0.26,-0.38,-1.28,0.6,-0.68,1.45,-0.35,12.11,-7.41,-21.77
2.94,-2.38,1.4,0.23,-1.54,0.12,-0.63,3.53,9.78,8.02
0.35,-1.39,0.15,2.96,-1.96,0.63,-0.15,10.4,2.3,33.8
2.56,-2.19,-1.31,2.96,-2.3,-0.13,-0.79,6.23,-1.51,-68.75
1.62,-0.38,-0.74,1.66,-0.43,0.19,0.55,-1.72,14.51,141.52
1.15,-2.81,-1.0,1.98,-0.34,-0.9,-2.88,1.2,-4.93,-275.02
1.13,-1.69,-0.28,1.05,-3.05,0.11,-3.14,4.91,-1.15,-336.33
3.09,-2.26,0.64,1.63,-2.33,-0.8,-1.63,1.02,3.74,-95.11
0.8,-0.18,0.18,1.83,-0.25,0.91,0.83,-2.34,5.54,236.06
0.13,-1.84,-0.97,0.1,-2.1,0.81,1.53,-5.91,-2.23,-134.07
2.3,-0.15,1.43,0.58,-3.13,-0.85,-0.55,-0.53,2.45,-21.2
1.39,-2.88,1.08,1.75,-1.5,-0.83,-1.18,5.95,-3.15,-124.33
0.58,-2.1,-0.79,2.44,-0.85,-1.17,0.42,4.36,-9.16,-84.22
1.9,-0.18,-0.57,0.01,-0.75,-0.98,-3.07,3.04,10.25,-208.56
1.9,-2.26,-0.96,1.77,-2.93,-0.21,1.43,0.95,-4.86,-72.19
0.12,-1.0,-1.36,1.98,-2.27,-1.35,-0.15,-0.53,-2.04,-230.9
0.78,-1.85,0.67,0.64,-2.97,0.29,-0.57,1.03,-3.76,-172.46
0.15,-0.22,-0.97,0.88,-1.89,-1.52,-0.16,3.19,-2.15,-213.71
0.49,-2.11,-0.95,2.59,-2.68,-1.06,1.53,-3.28,-4.45,-125.48
1.84,-3.11,0.26,3.06,-1.56,-1.05,-1.52,3.36,-2.21,-119.18
0.77,-1.91,0.95,3.1,-1.69,0.27,-0.45,5.19,6.57,59.59
2.42,-2.6,-0.9,2.47,-2.58,0.32,0.32,6.88,-4.08,-31.51
2.31,-0.48,0.18,1.09,-2.78,1.44,-1.32,-1.72,10.94,25.21
0.37,-3.09,-0.84,1.24,-1.23,0.35,-2.16,-7.22,2.2,-307.11
0.64,-2.49,-0.46,1.6,-1.59,1.57,1.36,3.75,-6.45,36.1
2.23,-2.34,-1.38,0.4,-0.13,0.0,-2.72,2.29,-5.91,-225.75
2.16,-1.56,-1.21,0.26,-2.7,-1.06,-1.29,2.75,4.96,-309.4
2.91,-1.31,1.52,0.08,-0.23,-0.75,-0.21,-12.54,7.66,115.16
2.32,-0.59,-0.56,1.95,-2.31,1.08,1.19,-5.18,10.99,176.47
0.56,-2.82,1.38,1.93,-0.57,0.34,-0.94,9.77,2.32,-6.88
0.79,-2.84,-1.28,1.91,-0.3,0.91,-1.34,-1.49,-8.82,-123.19
1.8,-2.7,0.09,1.1,-1.54,-1.46,-0.2,1.19,-4.61,-166.73
1.35,-0.47,-0.05,1.3,-2.3,-0.79,-0.43,6.85,3.4,-79.64
2.12,-2.9,-1.36,1.58,-0.04,1.3,1.48,3.79,-0.81,124.9
2.87,-0.66,-1.45,2.89,-1.85,-0.26,-1.47,-2.27,8.29,4.01
3.08,-2.19,-0.89,1.51,-0.18,-1.15,-0.97,6.55,5.69,-45.26
3.06,-1.12,-1.52,2.21,-2.23,-0.07,0.75,2.56,8.77,61.88
3.01,-2.35,-0.04,2.72,-0.27,1.17,-1.42,-6.92,1.56,161.57
1.06,-0.96,-1.44,2.07,-1.82,-1.2,0.03,4.06,-4.36,-129.49
2.54,-0.19,0.54,1.73,-0.56,-0.04,0.1,-10.98,-4.66,236.06
1.5,-0.5,-1.15,1.11,-0.65,0.84,-0.22,10.33,11.32,53.29
1.76,-1.53,-0.7,1.01,-1.31,0.21,1.27,12.15,1.74,40.68
2.15,-2.42,-0.9,2.12,-1.99,-1.19,-1.07,0.74,-2.58,-189.08
0.55,-0.45,-0.64,1.45,-0.97,-0.89,-0.3,13.04,-2.31,-71.62
3.06,-2.63,-1.5,0.25,-0.23,-0.66,1.33,5.91,-8.35,-21.77
3.06,-2.37,0.42,0.18,-0.58,0.28,1.33,2.81,11.99,132.93
1.98,-1.92,-1.2,1.98,-0.93,-1.33,-1.22,4.89,-1.86,-151.26
1.52,-1.63,-0.49,0.18,-0.79,-0.7,-1.03,4.56,-5.41,-168.45
0.93,-0.33,-0.66,1.6,-0.84,0.04,-2.44,9.57,6.58,-97.4
0.71,-1.39,-1.53,0.36,-1.27,0.84,-2.16,-3.14,-3.9,-254.39
2.77,-2.07,-1.28,0.44,-2.65,-0.09,-2.36,0.65,1.45,-300.23
0.79,-2.49,0.88,0.81,-1.91,-0.01,0.3,3.76,-9.74,-93.39
0.58,-1.11,1.52,2.33,-2.02,1.15,-2.47,4.4,5.71,-1.15
0.23,-1.44,0.34,2.48,-0.57,1.51,0.73,1.55,2.02,187.93
2.34,-1.0,1.54,2.92,-1.96,0.73,-1.52,-6.13,-0.14,174.75
2.85,-2.2,1.32,2.35,-2.56,0.27,1.35,-6.34,6.33,193.66
0.92,-2.55,0.69,0.52,-2.78,0.39,0.68,-1.06,-6.33,-122.04
2.97,-1.02,1.14,3.08,-2.47,-0.97,-1.52,-6.93,4.61,69.33
0.6,-1.63,-1.55,0.54,-0.01,0.13,-1.4,-4.36,-8.42,-190.22
0.76,-1.33,0.59,2.19,-0.07,-0.65,-1.64,6.25,6.65,-8.59
0.21,-2.57,-0.4,3.01,-1.4,0.02,-2.15,0.38,-5.75,-187.93
3.12,-0.91,-0.81,1.19,-3.14,-0.33,0.55,0.39,1.79,-18.91
1.13,-1.41,0.33,0.05,-2.84,0.11,-2.93,5.85,1.4,-318.56
2.39,-2.68,0.36,0.53,-3.09,-0.62,-0.59,-1.48,2.31,-211.99
1.3,-1.77,0.35,1.94,-2.1,-0.14,-0.47,11.02,-0.25,-50.99
2.02,-1.32,0.61,0.39,-2.54,0.3,1.41,6.57,7.52,49.85
2.56,-1.34,0.89,2.42,-2.21,-0.57,-1.31,-2.85,8.76,25.21
0.36,-1.21,-1.52,0.54,-0.9,0.93,-1.71,-3.63,-7.69,-201.11
2.94,-1.21,-0.7,0.24,-2.19,0.74,-2.24,1.28,3.41,-138.66
2.86,-0.98,-0.53,2.22,-1.06,-0.25,1.07,-10.95,7.41,190.79
0.75,-3.13,0.09,2.25,-0.24,-0.71,1.05,7.14,-4.63,3.44
2.61,-2.54,-1.2,0.67,-1.93,-1.02,0.16,-3.08,-2.7,-186.21
1.94,-1.63,0.93,2.36,-1.76,0.76,-2.06,-0.61,9.34,30.94
1.55,-0.38,-0.7,1.56,-1.59,-0.48,-0.38,9.19,8.12,-24.06
1.06,-1.4,1.23,1.41,-1.61,-1.57,-1.91,4.66,3.96,-159.86
2.25,-1.81,1.55,1.84,-2.1,1.36,-0.95,-6.5,8.41,122.61
2.04,-2.57,0.12,2.75,-0.33,-1.29,-0.6,4.88,5.98,6.88
1.12,-1.15,0.05,0.07,-1.52,-0.98,1.15,7.83,-4.08,-72.19
1.16,-3.14,1.15,1.41,-0.13,1.11,0.35,5.23,5.47,109.43
0.9,-3.05,0.86,1.58,-0.18,-0.24,-2.68,5.87,-2.68,-161.0
3.12,-3.04,0.55,0.29,-0.3,-0.1,-1.04,9.9,5.17,-29.79
2.19,-1.5,1.41,1.26,-0.09,-0.67,-1.54,-6.63,8.39,60.73
1.26,-2.54,-0.07,1.95,-2.08,-1.4,1.24,1.73,-6.67,-93.97
1.15,-1.45,-0.59,1.01,-3.06,-0.68,0.69,0.35,0.03,-167.88
0.45,-2.53,0.24,1.22,-1.55,-1.09,1.22,-2.62,-8.96,-116.88
2.2,-1.03,0.8,0.31,-1.29,1.54,-1.47,-2.55,14.23,60.73
1.06,-1.81,0.17,2.97,-1.9,-1.17,-0.18,9.1,-1.48,-49.27
2.28,-2.74,-0.93,2.15,-0.25,1.51,-0.49,4.07,6.02,87.66
2.97,-2.86,-1.44,2.06,-0.68,0.09,-2.5,5.68,-1.35,-135.22
1.87,-0.85,0.9,1.02,-2.28,0.03,1.55,-0.38,12.45,128.34
0.08,-1.2,0.3,0.22,-1.11,1.4,1.46,10.41,-6.25,65.89
1.26,-0.54,-0.87,2.87,-2.79,1.04,-2.04,7.94,4.37,-61.31
2.93,-1.66,1.31,1.62,-2.52,-0.63,-1.29,-1.65,6.12,-13.75
0.03,-1.36,0.34,1.6,-0.41,-1.22,-0.91,9.4,-6.98,-110.58
2.95,-1.48,-0.46,2.01,-1.35,-0.44,1.01,-4.32,12.19,128.34
1.4,-1.23,0.52,1.57,-2.77,0.75,-2.53,6.19,3.9,-131.21
2.87,-0.54,1.45,0.1,-0.57,0.52,-2.57,-11.62,-0.32,72.19
2.38,-1.96,-0.01,1.18,-1.48,-0.83,-1.32,5.95,2.64,-116.88
2.85,-1.49,-0.34,0.42,-0.06,0.58,-0.56,-0.29,15.0,80.21
3.02,-1.38,-1.45,0.07,-2.13,-0.67,0.3,-2.13,-1.85,-128.34
0.96,-0.14,1.55,1.18,-1.05,-0.99,-2.79,-2.08,6.22,-73.34
2.28,-3.0,1.14,2.09,-2.19,0.74,-1.88,5.82,3.88,-46.98
0.52,-2.87,-0.16,0.02,-0.67,-1.23,1.01,-9.31,-0.52,-193.66
1.88,-2.61,1.14,3.12,-1.44,-1.57,-1.65,3.08,1.92,-64.74
1.28,-0.89,-1.4,0.73,-0.24,-0.88,-2.32,7.26,-1.8,-213.14
1.36,-2.47,0.56,0.08,-1.05,1.47,-1.76,8.03,-7.28,-103.71
1.96,-2.61,-0.21,0.59,-1.32,-0.12,-1.85,2.4,-5.72,-203.97
0.37,-1.02,-0.89,1.78,-0.29,-1.05,-2.68,8.45,-3.38,-216.58
2.6,-1.01,0.36,2.46,-1.99,-1.08,-0.24,-4.03,10.04,63.03
0.59,-2.23,-0.68,0.06,-0.25,-1.07,-1.32,-5.2,-2.82,-280.75
1.37,-0.87,-0.83,3.04,-2.73,0.02,0.35,10.13,4.69,20.05
2.13,-2.71,0.04,0.29,-0.21,1.39,0.32,9.85,2.11,71.62
0.44,-1.91,0.41,1.84,-0.43,-0.39,-2.93,7.9,-1.51,-170.17
2.05,-0.81,-0.42,2.23,-2.26,0.39,0.8,0.59,13.02,113.45
0.64,-0.06,-1.12,2.01,-1.14,-0.85,-1.15,10.78,1.15,-95.68
1.37,-1.58,0.21,0.74,-2.87,-0.75,1.09,3.01,-1.59,-102.56
1.29,-0.23,-0.45,2.21,-0.84,1.22,1.54,-1.83,6.45,271.58
3.13,-3.0,-0.63,0.57,-1.16,0.66,0.79,10.44,-3.05,20.63
1.43,-1.94,0.01,1.68,-1.76,-0.97,-0.06,7.72,-4.0,-92.25
0.95,-0.18,0.71,1.18,-0.32,1.13,-2.35,-1.76,10.66,64.17
0.09,-1.13,-0.78,2.03,-1.53,1.23,-1.09,9.65,-8.79,-67.61
2.01,-2.26,-0.35,0.62,-1.72,1.18,-0.01,9.93,-4.7,-30.37
0.49,-0.64,-0.13,2.88,-1.15,0.56,-0.35,3.95,8.64,95.11
2.54,-1.12,-0.01,1.55,-1.7,-1.17,-2.38,-2.14,7.53,-131.21
0.49,-2.33,-0.19,0.52,-3.02,0.97,-0.66,-3.33,-0.29,-241.79
1.9,-2.82,-1.46,2.04,-1.45,1.47,-1.22,3.16,-7.91,-88.24
3.0,-1.49,1.14,0.39,-2.03,-1.56,-1.24,-4.1,2.65,-102.56
0.35,-2.96,-0.58,2.13,-2.68,0.54,-2.69,-3.33,0.04,-337.47
1.06,-0.28,0.76,0.34,-1.01,0.9,0.38,2.06,15.27,123.19
2.86,-0.57,1.57,0.84,-0.01,-1.21,0.38,-10.26,-6.54,221.16
1.8,-0.63,-0.73,2.19,-1.87,-0.92,-2.07,3.24,6.37,-127.77
2.89,-3.05,0.95,2.99,-2.65,-0.25,-1.89,3.79,2.58,-57.87
1.51,-2.1,-0.97,0.64,-1.83,-0.78,-2.59,1.61,-2.99,-350.65
0.34,-1.0,1.1,1.83,-0.3,0.59,-0.83,1.53,8.42,99.12
2.66,-1.65,0.3,1.95,-0.15,-1.11,-2.17,-3.8,7.32,-9.74
2.55,-2.85,-0.33,0.99,-2.52,1.54,0.91,7.71,-2.75,16.62
0.19,-0.62,1.21,1.34,-3.0,-0.85,-0.24,5.42,-3.38,-112.87
0.66,-0.73,1.14,0.15,-1.08,1.46,0.26,8.22,11.14,106.57
1.96,-1.57,-0.07,2.93,-1.7,0.67,0.52,-2.51,9.25,156.99
1.46,-2.92,0.96,2.43,-0.77,-1.04,-0.62,7.54,2.53,-28.65
0.7,-0.42,1.18,1.91,-2.89,0.67,-1.19,7.89,7.56,-2.29
1.08,-2.59,0.36,1.54,-3.08,-1.16,-2.65,2.96,-1.62,-372.42
0.5,-0.86,1.44,1.67,-1.32,1.21,1.54,0.29,5.0,239.5
2.16,-0.87,0.84,0.23,-1.04,-0.94,0.63,0.47,13.83,57.87
2.79,-1.11,0.0,2.69,-1.03,0.03,-2.27,-7.48,4.65,63.03
1.52,-0.26,0.82,2.92,-3.12,-0.32,-0.82,1.49,11.23,42.4
1.83,-2.05,0.5,3.1,-1.73,0.33,0.44,-1.3,8.41,138.66
3.04,-2.7,-0.29,2.75,-1.6,0.88,-1.42,1.67,8.1,37.82
2.97,-1.14,0.67,2.0,-2.44,0.91,1.43,-10.04,2.15,252.1
0.99,-2.33,1.33,0.83,-2.8,-1.08,-1.1,1.35,1.09,-238.35
0.77,-0.63,0.09,0.29,-2.32,-1.41,-1.24,5.16,4.05,-254.97
1.55,-1.96,-0.01,0.11,-1.41,0.02,-2.27,4.62,-3.39,-227.46
1.72,-0.33,-1.32,0.79,-1.3,-0.05,0.29,11.12,4.26,-11.46
1.59,-1.96,1.42,2.01,-3.04,-1.33,-2.02,1.72,2.07,-190.79
2.44,-0.4,0.85,2.66,-1.77,-0.99,0.79,-10.22,1.1,205.12
2.07,-2.64,-1.03,2.67,-1.52,-0.08,1.02,8.65,-0.63,28.07
1.83,-2.83,0.03,0.31,-0.69,-0.96,-2.99,4.35,-5.49,-303.67
2.66,-0.7,1.54,2.68,-1.58,1.08,1.07,0.99,-0.44,386.75
2.28,-2.45,-0.04,1.85,-2.42,-0.49,1.18,8.12,-0.92,-5.16
1.44,-0.22,0.32,0.51,-0.78,1.3,-0.72,-1.94,15.69,106.0
1.08,-1.72,0.6,2.88,-0.35,0.25,-2.42,1.38,4.63,18.33
0.25,-1.55,-1.01,2.89,-2.02,-0.1,-2.47,2.29,-5.34,-229.76
0.19,-2.19,-0.78,0.02,-1.64,1.15,1.4,-7.19,-3.37,-106.0
0.73,-1.61,0.98,1.26,-2.11,1.18,0.91,11.14,4.21,76.78
1.63,-0.39,-0.76,1.8,-0.62,-1.2,-0.39,5.76,11.69,4.01
3.03,-0.55,-0.72,2.7,-0.21,0.81,1.02,-3.37,-3.24,348.36
0.8,-2.5,-1.4,2.88,-2.36,-1.52,-1.52,-0.22,0.92,-322.0
1.6,-2.45,0.42,2.69,-2.09,-0.26,-2.44,5.17,0.27,-144.96
0.91,-2.93,1.42,1.4,-0.43,-1.56,1.29,10.0,-1.06,5.73
0.47,-3.03,0.91,2.39,-0.73,0.57,0.53,7.49,2.59,63.6
0.84,-2.47,0.35,0.16,-2.27,0.89,-0.95,-3.48,-5.4,-197.67
1.45,-2.94,-0.9,2.99,-1.31,0.24,0.57,7.35,-2.82,5.73
0.12,-2.48,-0.81,2.1,-1.33,-1.1,0.87,-6.96,-5.62,-150.69
0.54,-2.89,-0.64,1.05,-0.7,0.17,-3.13,-5.2,-4.38,-320.86
2.5,-1.67,1.33,0.24,-0.7,0.45,1.23,-7.67,11.09,193.66
2.55,-2.93,-1.38,0.48,-2.94,-0.31,0.46,-2.64,2.28,-233.19
1.95,-1.43,-0.01,2.13,-0.39,-0.47,0.61,-2.68,12.08,136.94
0.1,-1.59,0.22,1.6,-1.87,-0.98,-1.66,2.57,-5.62,-239.5
2.42,-1.6,-0.95,1.33,-0.96,-0.05,0.87,9.32,8.73,60.73
2.79,-2.12,-0.34,2.51,-2.59,-1.06,-2.22,1.25,2.5,-173.61
0.49,-0.43,0.55,0.66,-1.23,0.74,1.35,10.44,9.12,122.04
2.15,-2.97,-0.45,1.75,-1.57,-0.48,-3.12,4.4,-3.19,-268.72
3.1,-1.9,-0.38,1.13,-1.39,0.52,1.48,0.4,11.49,146.68
3.0,-0.85,0.62,0.77,-1.08,-1.36,-0.6,-7.09,7.38,28.65
0.09,-2.94,-0.4,3.04,-2.67,-0.47,0.7,-7.01,-2.05,-151.83
1.78,-1.69,0.33,3.05,-2.39,-1.1,-2.99,3.09,4.71,-172.46
3.0,-2.43,0.58,2.06,-1.57,-0.14,-0.02,-1.61,11.29,84.8
1.27,-0.85,-0.45,2.83,-1.33,0.57,0.42,0.35,10.46,140.95
2.81,-1.98,0.52,0.51,-0.74,1.35,0.1,-3.81,12.65,147.25
2.51,-2.55,-0.43,0.71,-1.21,1.44,0.84,9.42,2.32,75.06
0.3,-2.19,1.51,2.18,-0.05,0.14,1.42,-0.34,4.29,189.65
1.92,-0.81,-1.54,1.98,-0.57,0.78,-0.32,3.83,13.06,82.51
0.3,-0.88,-0.77,1.75,-0.13,-1.56,-2.82,9.02,-1.77,-235.49
2.73,-0.77,0.65,1.21,-2.52,-1.18,-0.13,-1.69,5.69,-0.57
1.7,-2.15,-1.54,0.18,-1.85,-1.07,-0.1,-1.52,2.9,-276.74
2.82,-1.62,-0.71,0.5,-2.99,1.1,1.55,4.62,3.67,37.24
0.25,-2.28,0.5,2.56,-1.25,-0.3,0.79,9.72,-3.1,15.47
0.64,-1.87,1.1,1.69,-0.15,1.49,-0.48,1.44,6.03,138.66
2.0,-2.14,-1.24,0.91,-1.04,1.24,-0.8,7.9,-7.02,-61.31
2.01,-2.1,1.29,1.89,-2.36,-0.71,0.74,6.01,7.94,43.54
0.32,-0.91,-1.46,2.93,-3.0,0.42,0.11,3.22,-8.01,-91.1
1.99,-0.59,0.38,0.51,-2.78,-0.09,0.67,4.03,6.75,5.16
2.8,-2.72,0.93,1.74,-1.96,0.85,-2.22,2.83,7.01,-33.23
2.72,-0.21,0.86,2.91,-0.92,0.64,0.14,2.15,-1.12,351.8
0.51,-3.05,1.04,2.04,-1.11,1.19,-0.06,8.7,0.03,32.09
2.11,-0.9,-0.6,1.73,-2.23,0.43,-0.66,7.02,8.97,-6.88
3.02,-0.48,-0.52,0.91,-2.21,-0.31,-2.28,-4.64,4.75,-107.14
2.57,-3.12,0.25,1.03,-1.73,0.7,1.02,9.9,-0.22,41.25
1.72,-0.49,0.85,0.34,-0.24,-0.58,0.86,-6.08,14.79,140.95
0.77,-2.88,0.06,1.32,-2.98,1.36,0.31,-3.77,-6.95,-116.88
3.1,-2.35,-0.46,1.49,-1.45,0.5,-2.74,4.43,5.27,-109.43
3.06,-1.06,-0.52,2.68,-0.31,-1.35,-2.92,-6.24,1.69,-24.06
0.04,-3.05,-1.31,1.43,-2.39,1.49,-2.15,-1.65,5.92,-340.34
0.85,-0.84,1.2,1.66,-2.42,1.25,-0.48,5.41,10.83,69.9
0.92,-1.66,1.31,2.76,-0.16,0.88,-2.05,-2.07,1.42,114.59
0.88,-0.01,0.43,1.75,-1.05,1.34,-2.88,0.13,9.37,26.36
1.19,-1.96,1.16,2.15,-0.58,-0.02,-2.07,3.6,7.27,-7.45
0.88,-2.09,0.49,1.04,-1.21,-1.46,-2.38,6.59,-2.5,-271.01
0.88,-1.96,0.38,0.77,-2.68,-0.74,-2.83,5.06,-2.21,-354.09
1.92,-2.41,-1.21,1.43,-0.01,-0.82,-1.03,5.65,-7.01,-122.04
1.23,-2.49,-0.68,0.33,-2.99,1.26,-2.59,0.21,-1.01,-339.76
1.78,-0.39,0.8,2.53,-1.04,-0.47,0.44,-8.33,1.77,209.13
1.57,-1.18,-1.49,3.1,-1.61,-1.14,1.24,8.76,3.92,28.07
2.24,-0.42,0.15,2.36,-1.2,-0.04,-1.62,-8.82,7.01,84.22
0.1,-2.66,-1.06,1.97,-2.36,-0.81,-0.29,-2.4,4.23,-292.78
2.8,-2.67,-0.39,1.55,-0.9,-1.45,-1.12,5.34,-0.36,-124.9
2.5,-0.73,-0.82,0.28,-1.34,0.84,0.48,5.02,12.07,69.33
2.13,-2.42,0.4,1.45,-0.71,-0.03,1.41,5.41,9.86,127.77
1.97,-0.92,1.08,1.52,-2.6,-1.47,1.51,1.44,8.74,62.45
2.85,-2.83,-1.13,0.6,-2.27,1.21,-0.69,-0.53,-8.0,-129.49
0.56,-0.46,1.21,0.28,-2.15,-0.96,-2.88,6.68,5.05,-252.1
0.55,-1.81,1.47,1.24,-1.92,1.32,-1.43,11.61,1.31,-33.23
0.3,-2.8,0.76,0.66,-0.84,-1.13,-1.83,-1.79,-5.54,-279.6
1.16,-0.59,-0.41,2.62,-3.0,-0.97,0.21,7.99,-0.02,-56.15
0.64,-1.87,0.38,1.09,-2.36,-0.71,-1.34,1.94,-2.9,-238.92
2.35,-2.41,1.47,2.85,-0.02,-0.04,-0.13,-3.81,-4.56,233.19
2.75,-2.12,0.62,2.32,-2.22,1.11,-3.12,-1.2,6.24,-37.82
1.14,-0.97,-0.58,2.23,-2.01,1.2,0.85,8.26,8.16,106.57
0.59,-0.03,-0.79,2.89,-1.72,-0.21,-0.37,10.09,7.87,20.63
0.81,-1.9,-0.03,2.5,-0.27,0.78,-2.44,6.9,3.1,-31.51
2.46,-2.37,-1.52,1.93,-0.7,1.37,-0.86,8.9,3.09,17.76
2.13,-0.12,1.08,0.69,-0.55,1.33,0.61,-8.66,-1.91,296.22
1.51,-2.65,-1.41,2.97,-2.0,-0.01,-2.61,0.11,-2.97,-240.64
1.78,-2.61,0.84,2.45,-1.61,-0.96,-1.17,6.58,1.41,-73.34
2.1,-0.22,-1.55,0.31,-0.05,0.02,-2.54,5.6,7.33,-110.58
0.2,-2.49,-0.95,2.63,-2.12,0.18,0.4,-5.37,-7.06,-123.19
2.4,-1.31,-1.12,1.82,-0.48,0.66,-1.26,2.84,12.62,40.68
1.27,-1.26,0.18,2.16,-2.49,-0.02,1.18,10.19,6.05,58.44
1.86,-2.14,0.7,1.55,-1.91,0.23,1.28,7.89,8.39,89.95
1.7,-2.76,-1.25,1.3,-1.54,-0.49,-1.35,-4.81,-2.94,-251.53
2.4,-0.07,0.16,0.84,-2.05,0.35,1.49,-9.94,9.49,178.76
0.38,-3.0,0.39,2.66,-2.93,-0.65,-2.33,-1.87,-0.93,-313.98
1.82,-1.97,-0.36,2.5,-2.49,-1.22,-1.16,2.43,-1.21,-165.01
0.02,-0.36,-0.47,0.59,-2.15,-1.25,-1.94,6.88,-2.08,-318.56
1.96,-0.15,0.12,0.22,-1.37,1.5,-2.84,-1.52,11.5,-32.09
1.42,-1.24,-0.46,1.86,-1.22,-1.04,-0.51,10.43,1.72,-68.18
0.94,-0.08,0.93,2.74,-1.24,-1.45,1.5,-3.48,5.44,191.37
1.33,-1.04,-0.23,1.11,-0.83,-0.03,-1.7,11.65,4.73,-79.64
0.64,-1.0,0.34,1.62,-2.42,0.07,0.47,12.71,-1.16,-16.04
0.29,-2.72,-1.05,2.22,-2.5,0.09,-0.78,-5.94,2.66,-254.97
0.43,-2.74,1.29,0.33,-2.63,1.4,0.04,-0.25,-8.81,-107.72
1.85,-1.58,0.73,2.44,-0.79,0.36,0.3,-6.47,5.53,189.65
1.14,-2.07,-0.8,1.35,-0.98,-0.96,-2.84,4.37,-5.15,-295.65
2.72,-2.58,1.05,3.09,-2.32,0.53,-0.57,-3.72,7.6,110.01
2.55,-2.87,0.51,1.1,-1.6,-0.53,-1.92,5.18,-0.07,-158.14
2.94,-2.46,1.02,1.69,-2.25,1.18,-0.09,-3.49,10.42,116.31
1.09,-3.0,-1.52,2.07,-2.41,0.89,1.45,-5.64,-3.53,-81.93
1.53,-1.54,-1.4,1.09,-2.2,1.34,0.41,6.09,-6.29,-44.12
2.09,-2.73,-1.09,2.28,-1.97,-0.36,-0.09,1.62,-7.79,-107.14
0.12,-1.86,1.46,3.04,-2.49,-1.33,1.38,8.15,-2.65,18.33
0.24,-1.52,0.62,2.6,-0.84,-1.35,-2.19,5.86,-1.01,-139.8
0.85,-2.99,-0.52,0.91,-1.46,1.47,0.22,-5.15,-8.64,-87.09
2.84,-1.89,-1.56,1.22,-1.28,0.42,-0.6,9.2,-1.27,-48.7
0.82,-2.5,-1.03,3.13,-3.07,-1.06,0.34,-5.3,0.05,-193.09
1.71,-0.22,1.52,0.01,-1.72,-1.56,-1.32,-2.04,4.87,-90.53
2.21,-2.68,0.11,1.48,-2.95,-1.35,0.18,-1.45,-0.43,-171.89
2.13,-0.11,1.54,2.54,-0.84,0.72,-0.06,3.79,-0.87,339.19
1.2,-0.92,-1.36,1.72,-0.11,-0.15,-2.53,9.6,2.41,-123.19
1.44,-1.84,-1.27,0.74,-1.88,-0.01,1.46,-0.34,-7.04,-77.92
0.46,-0.55,0.34,0.04,-2.23,-1.52,-0.36,4.32,2.24,-218.87
2.23,-2.65,1.24,3.07,-0.31,1.56,-3.0,-1.95,-0.15,122.61
0.36,-1.72,0.31,0.77,-0.99,-0.49,-1.85,4.55,-8.14,-206.84
2.66,-0.28,-0.33,0.12,-1.55,1.3,1.4,-7.87,10.52,190.22
1.54,-0.94,-0.02,0.69,-0.84,-1.0,1.34,11.14,9.1,44.12
0.59,-2.24,0.54,1.58,-1.0,0.85,-1.3,11.14,-4.76,-56.15
2.65,-1.56,-1.15,2.77,-2.11,1.48,-0.75,0.62,10.31,76.2
1.32,-2.43,-0.53,0.58,-2.24,1.48,-0.44,-1.89,-8.45,-129.49
2.41,-0.49,-0.68,0.44,-2.05,0.4,0.18,5.1,8.56,12.03
0.75,-1.05,-1.51,1.23,-0.09,0.85,-0.12,12.63,-3.79,3.44
0.69,-1.08,1.18,2.16,-1.14,0.12,0.8,-0.22,8.66,156.42
0.2,-2.38,0.93,2.37,-2.85,-1.33,-0.28,-2.44,-3.86,-191.37
3.1,-2.03,0.16,1.67,-0.76,1.37,0.32,-8.5,4.87,219.44
2.91,-2.95,0.73,2.12,-0.12,0.98,-1.83,-5.44,5.12,105.42
0.99,-2.05,-0.04,0.08,-1.7,0.81,-1.51,-0.48,-7.14,-195.95
3.06,-1.3,-1.17,1.77,-2.73,0.11,0.41,4.56,4.64,8.59
0.65,-0.01,1.26,0.29,-2.77,1.16,-2.62,4.79,5.18,-116.88
2.79,-2.14,0.78,1.32,-2.86,-0.04,1.5,3.19,7.59,77.35
2.42,-2.37,-0.31,1.2,-1.51,0.13,-1.39,8.24,-1.68,-104.85
1.08,-0.22,-1.31,2.87,-0.71,1.22,-1.82,1.5,9.9,63.6
2.87,-2.35,0.6,1.36,-2.98,-0.88,-1.25,-0.63,0.82,-150.69
1.25,-0.3,0.06,1.32,-2.14,-0.58,0.74,8.97,8.72,20.05
3.11,-2.39,0.03,2.51,-0.99,1.0,-2.55,-3.48,6.38,41.25
1.75,-1.76,-0.82,1.37,-2.32,-0.41,0.54,3.72,-5.1,-94.54
2.94,-0.13,-1.49,1.32,-1.99,0.16,1.02,-3.31,10.68,104.85
1.88,-2.09,-0.76,2.5,-1.8,-0.16,-0.33,9.69,-1.14,-43.54
2.66,-0.62,0.61,2.59,-2.18,-0.04,0.04,-11.76,3.12,175.33
0.58,-1.67,0.38,1.51,-2.97,0.24,-0.25,3.17,-7.14,-124.9
1.35,-2.32,0.72,2.35,-0.49,-0.38,-2.89,3.64,4.28,-95.11
2.05,-2.88,0.28,2.38,-2.9,0.06,0.82,7.01,-3.3,-10.89
1.02,-2.49,-0.97,2.87,-1.03,-1.0,-2.6,2.69,-2.66,-240.64
0.09,-0.14,1.24,2.49,-3.12,-0.45,-0.23,10.85,2.44,-6.88
2.94,-2.84,0.55,1.45,-1.19,0.68,-0.85,4.1,10.58,42.4
0.92,-0.52,-1.27,0.96,-3.03,0.85,-2.63,4.25,1.11,-270.44
1.38,-0.52,-0.66,2.68,-0.51,1.32,0.24,-3.55,4.16,225.17
0.18,-0.03,-0.22,1.68,-0.21,-1.1,1.32,10.02,8.84,92.82
0.5,-0.2,1.07,1.76,-2.81,0.42,-2.51,6.31,4.44,-101.41
1.3,-0.38,0.03,1.28,-2.19,-0.03,0.68,9.03,10.12,39.53
1.27,-1.99,-1.25,1.14,-0.58,1.45,-0.01,8.73,-5.7,1.72
3.06,-1.56,0.52,2.81,-1.7,-0.07,-2.53,-5.94,3.96,30.37
1.57,-1.47,-0.46,0.85,-0.43,1.1,-2.0,12.2,3.63,-48.13
0.68,-0.19,-0.81,1.11,-1.07,-1.12,-2.35,9.06,2.01,-214.86
1.22,-2.91,1.42,1.0,-1.11,-0.44,0.6,11.3,-2.43,-12.61
0.46,-0.4,-0.04,2.8,-2.07,1.43,-0.02,3.87,7.93,123.76
0.61,-0.9,-0.35,0.77,-0.17,-1.45,-0.33,11.01,-5.47,-104.28
1.45,-2.16,0.71,3.03,-2.73,-1.06,-1.55,4.73,-1.7,-132.35
0.48,-0.28,-0.47,1.29,-1.46,0.92,1.34,12.25,5.63,104.28
1.56,-0.54,0.12,0.31,-1.75,-0.39,-1.82,4.98,5.58,-143.81
0.31,-2.16,-1.37,2.92,-2.18,0.24,-1.73,-3.63,-3.84,-227.46
1.68,-0.55,-0.02,2.37,-0.59,-0.46,-0.91,-4.64,10.91,87.09
0.12,-0.94,1.28,1.18,-2.74,0.84,-0.11,12.14,-1.7,-21.2
0.84,-2.46,-0.63,0.45,-2.15,1.26,-0.31,-7.04,-4.65,-171.89
2.51,-1.49,1.26,0.52,-2.76,0.41,-2.37,-0.8,5.18,-110.01
0.64,-2.99,0.16,1.42,-2.9,-0.17,-2.43,-0.98,-1.16,-359.24
1.69,-1.92,0.81,0.42,-1.06,-1.07,-2.79,7.36,4.73,-224.6
0.54,-0.21,-0.06,2.67,-0.24,-0.7,-1.96,3.67,6.7,2.29
0.26,-0.09,-1.46,1.28,-2.31,-1.35,-2.21,6.51,-0.95,-336.9
2.75,-1.36,1.41,0.87,-2.29,0.28,-0.3,-5.6,10.38,77.92
0.11,-0.21,-0.84,2.05,-2.05,-0.8,-1.46,6.12,-4.09,-183.35
2.86,-1.3,0.47,0.77,-1.55,-0.86,0.4,-0.98,11.37,45.26
1.16,-1.48,0.26,0.65,-1.21,-0.65,-0.73,9.68,-3.37,-114.59
2.34,-2.73,-0.92,0.19,-2.65,1.04,1.37,-1.48,-5.8,-77.92
3.13,-0.54,-1.41,0.37,-0.88,1.52,-1.05,-2.07,12.01,65.32
1.65,-0.55,-0.33,1.11,-0.43,-0.35,-2.52,3.78,11.08,-81.36
2.78,-0.62,0.16,2.86,-2.07,-0.42,-0.04,-11.26,4.91,151.83
1.15,-2.23,1.23,1.94,-2.5,0.13,-2.8,5.63,0.78,-176.47
1.8,-1.01,1.22,0.27,-2.73,1.08,-1.31,4.72,7.18,-38.96
0.2,-0.32,-0.13,0.51,-2.54,0.79,-1.8,5.87,-3.8,-188.5
3.04,-2.92,0.18,2.33,-0.27,1.45,-1.62,-4.98,4.76,125.48
2.74,-1.9,1.26,0.71,-1.97,0.93,-1.03,-1.24,11.81,42.4
2.14,-0.29,-0.77,2.68,-0.9,-1.5,-3.02,-5.0,5.91,-95.11
2.47,-2.87,-1.44,2.55,-1.39,0.45,-1.39,5.83,-4.84,-92.82
1.96,-2.35,0.32,0.67,-0.33,0.66,0.15,11.0,7.48,61.88
0.67,-0.98,1.04,0.34,-2.37,-0.03,0.06,9.41,-2.57,-72.77
0.59,-0.59,1.46,0.63,-1.86,1.03,-2.94,6.54,6.51,-96.26
0.26,-1.37,0.83,1.68,-0.29,1.07,-2.44,8.45,3.82,-14.9
1.26,-2.4,-1.43,0.67,-1.04,0.64,-2.43,-5.17,-3.47,-271.01
0.56,-1.68,-0.26,0.6,-2.64,-0.76,-0.54,1.81,0.21,-270.44
0.36,-2.58,0.48,1.67,-0.28,-1.01,0.09,6.51,-9.44,-72.77
0.78,-1.98,-0.27,2.04,-2.81,1.49,1.01,7.73,-4.73,14.9
1.82,-0.56,-0.06,0.85,-0.85,-0.65,-0.16,5.25,13.94,22.35
0.49,-0.08,-0.53,2.72,-2.88,1.18,0.63,8.9,6.93,87.66
1.99,-1.56,-0.67,1.87,-2.37,0.85,-3.14,5.38,3.54,-173.61
2.89,-1.09,-0.49,1.14,-1.87,-0.15,-2.51,-1.13,7.3,-119.18
2.28,-2.44,-0.03,1.06,-0.34,-0.62,-0.95,10.82,1.82,-59.59
0.91,-1.34,-1.43,0.93,-0.08,-0.07,1.32,9.52,-7.2,13.75
1.0,-1.52,0.15,0.83,-0.69,-0.77,1.43,14.15,-0.56,24.64
0.57,-2.62,-0.63,2.36,-1.4,0.1,-2.48,-0.84,-5.69,-234.91
1.13,-1.52,1.36,2.06,-1.67,-1.22,-0.91,7.1,4.7,-44.12
0.56,-0.47,-1.55,0.63,-0.78,-1.55,-0.32,1.62,-4.4,-199.39
1.81,-1.29,1.32,1.31,-1.68,1.08,-2.68,-0.93,9.62,-7.45
0.47,-0.04,-0.59,2.36,-2.21,-0.8,-3.09,7.91,3.68,-223.45
2.23,-2.22,0.32,1.46,-2.67,-0.03,-2.58,3.57,2.2,-199.96
0.52,-0.52,0.51,1.82,-0.56,1.34,-1.35,1.67,9.26,100.84
0.65,-0.11,0.32,3.08,-2.77,0.73,0.6,2.19,9.07,143.24
2.99,-2.03,-0.75,0.61,-2.57,-0.07,-0.15,1.08,-2.41,-112.87
2.8,-0.32,1.49,1.63,-1.48,1.06,-1.94,-6.84,-5.6,185.64
0.51,-1.67,-0.55,0.18,-0.64,-0.48,-0.91,-2.96,-8.27,-203.97
0.14,-0.55,-0.71,1.78,-0.66,-0.66,-1.3,11.36,-5.21,-112.3
1.68,-1.63,-0.73,2.61,-2.23,0.95,-1.68,8.96,2.01,-59.01
1.17,-1.66,-0.72,1.26,-1.05,1.41,-2.3,9.42,-4.57,-108.29
3.13,-1.43,-1.06,0.04,-0.06,-1.4,-0.72,5.12,2.77,-85.94
2.23,-1.34,-1.12,0.57,-0.54,-0.65,0.09,10.75,0.09,-43.54
0.68,-2.05,-0.62,1.73,-2.96,-0.82,-1.6,1.79,-0.15,-323.15
2.3,-0.16,1.52,1.91,-0.01,0.31,-2.15,-1.22,-2.93,213.14
0.75,-2.84,-1.06,1.23,-2.98,-1.34,-2.65,-1.95,-1.5,-509.36
0.58,-3.01,1.15,1.91,-2.29,-1.39,-0.99,-1.33,-1.95,-231.47
2.31,-0.24,-0.71,0.82,-2.51,0.63,0.4,2.88,10.08,40.11
3.07,-0.76,-1.44,2.51,-3.1,-1.38,-2.38,-3.82,2.64,-199.39
3.07,-0.8,0.63,0.76,-0.61,0.56,0.55,-14.73,-1.58,238.35
0.94,-2.01,-1.1,2.06,-1.91,0.96,-0.06,4.98,-9.2,-64.17
1.62,-2.65,-0.56,2.51,-1.17,0.56,-2.34,6.33,-2.25,-116.31
2.47,-1.32,1.5,0.63,-2.1,-1.32,-2.34,-4.16,5.1,-142.09
1.3,-1.81,1.01,2.37,-1.09,0.25,1.2,-1.48,7.52,185.07
0.95,-0.58,0.71,3.02,-0.77,-0.95,-0.31,-1.94,6.55,118.6
1.28,-1.18,1.17,0.23,-1.35,-0.43,1.13,10.65,9.09,48.7
0.8,-1.63,-0.37,1.81,-2.2,0.18,-2.41,4.79,-4.35,-218.87
0.83,-1.34,-1.35,0.36,-1.57,0.65,-0.02,-2.95,-7.71,-139.8
2.59,-0.66,0.69,0.95,-0.97,-1.16,-2.28,-7.6,5.76,-48.13
1.79,-0.62,0.17,2.71,-0.81,1.48,-0.05,-3.11,-0.04,267.57
1.67,-1.81,-0.19,1.14,-0.57,0.32,-0.35,13.31,5.58,12.03
1.18,-0.62,-0.06,1.28,-0.97,1.25,-1.64,7.58,12.32,24.06
1.01,-1.41,-0.12,0.05,-2.65,0.49,-0.88,1.02,-1.61,-201.11
2.67,-1.74,-1.23,2.45,-1.14,-1.14,0.93,5.84,8.08,45.84
1.43,-0.65,0.71,2.18,-1.5,-0.85,-0.41,0.92,11.92,52.14
1.01,-1.59,0.67,2.39,-2.31,-0.37,1.49,9.55,4.84,73.91
3.09,-0.23,0.86,0.45,-2.67,1.31,-3.09,-8.07,-0.07,-16.04
2.61,-0.62,-0.25,2.06,-0.36,-0.2,0.52,-12.49,2.06,215.43
2.65,-3.09,0.67,1.54,-0.52,1.12,-1.74,3.01,8.72,36.1
0.72,-2.64,1.03,3.02,-0.46,1.17,-2.06,0.41,4.46,44.69
2.19,-0.07,-0.46,2.07,-0.11,-0.4,-0.57,-11.97,5.1,151.83
2.43,-0.99,0.81,2.33,-0.59,-0.33,-2.53,-6.23,2.73,64.74
2.1,-1.11,0.1,2.12,-1.36,0.46,-0.58,-4.0,13.01,99.12
3.02,-1.75,1.21,2.28,-1.34,-0.79,0.33,-10.64,2.72,169.6
2.86,-0.21,1.04,0.9,-1.26,0.29,-2.99,-9.7,-2.06,36.1
2.87,-1.36,1.19,0.23,-1.33,0.45,1.31,-10.63,8.94,192.51
1.92,-2.22,0.06,2.83,-0.68,-0.08,1.28,-2.14,7.18,178.19
2.88,-0.22,1.29,0.57,-3.0,1.46,0.51,-11.53,-0.41,199.96
0.47,-0.81,-1.21,0.84,-0.16,-1.32,-0.9,4.2,-7.91,-177.04
1.95,-1.78,-1.37,1.71,-1.8,-0.34,-2.07,3.05,-1.94,-211.99
2.97,-0.24,1.27,1.52,-1.89,0.79,-0.43,-9.16,-7.64,228.61
0.85,-2.28,-1.14,0.45,-2.25,-0.18,-0.26,-2.41,3.23,-275.59
1.3,-2.75,-0.21,2.37,-0.92,0.98,-0.88,9.37,0.01,-6.3
0.06,-0.53,-0.44,0.44,-2.54,-0.86,1.05,1.77,-3.54,-161.57
2.49,-0.77,-0.22,1.81,-3.0,-0.03,0.37,2.13,9.03,37.24
1.94,-0.36,-0.11,0.79,-1.28,0.53,0.85,-2.49,15.58,135.22
1.35,-0.84,-0.8,2.52,-0.39,-1.5,0.28,7.32,9.62,35.52
3.07,-2.23,-1.16,1.03,-2.87,0.65,-2.92,1.51,0.71,-253.82
0.22,-1.55,0.49,0.6,-2.93,0.21,-1.06,0.58,-2.79,-230.33
2.29,-3.04,-1.19,2.42,-0.99,0.11,-0.39,7.74,-4.97,-45.26
3.06,-0.61,-1.47,1.21,-0.3,-0.66,0.37,-4.5,13.14,91.67
3.07,-2.02,1.13,1.89,-1.9,0.09,0.28,-9.24,7.8,145.53
3.0,-0.79,-0.08,0.14,-0.06,-1.15,-0.4,-5.2,12.11,37.82
3.14,-2.65,1.52,2.52,-2.51,-0.39,0.52,-4.41,7.82,123.19
1.17,-2.77,-0.62,1.35,-0.66,-0.12,-0.78,-0.99,-10.72,-139.23
1.95,-1.24,-1.41,2.69,-0.45,0.78,-0.26,-0.94,11.16,118.03
0.52,-2.26,-1.56,2.55,-3.03,0.66,-2.33,-1.72,0.75,-312.26
2.74,-1.75,0.1,0.38,-1.95,-0.85,1.1,5.73,3.62,-13.18
3.1,-0.08,0.68,1.56,-3.1,0.48,0.5,-11.88,0.23,179.91
0.81,-2.0,-0.08,0.14,-1.89,-0.2,-1.19,-1.26,-2.88,-252.67
0.02,-2.15,0.46,0.37,-2.18,0.14,-1.49,-2.92,-3.16,-276.74
2.58,-1.76,-0.04,2.44,-2.86,-0.61,-1.71,2.69,2.67,-112.3
0.5,-1.71,0.03,0.51,-2.98,1.12,-1.07,-0.48,-4.12,-206.26
3.03,-1.65,-0.86,0.33,-1.26,-1.57,-0.96,0.66,2.06,-168.45
0.95,-2.63,0.06,1.61,-3.13,-1.27,-0.21,0.08,1.9,-264.71
1.5,-1.06,-0.74,0.61,-0.07,-0.07,-2.42,10.53,2.65,-128.92
1.33,-1.75,0.6,1.33,-0.55,-0.9,-0.03,11.92,6.62,1.72
2.55,-2.15,-1.01,0.56,-0.92,0.24,-2.39,5.55,-2.97,-178.76
0.96,-0.58,-1.43,2.51,-2.05,0.2,-1.14,9.77,-1.55,-87.66
1.02,-3.02,-0.34,1.26,-1.29,-0.3,0.48,-5.76,-9.06,-125.48
0.47,-2.96,0.65,0.82,-1.24,0.33,-2.85,-1.42,-6.7,-273.87
2.07,-1.19,-0.33,2.79,-1.14,0.09,-2.9,-0.99,7.41,-34.95
2.22,-2.18,-1.28,0.54,-0.31,-0.2,-1.96,3.42,-6.27,-181.63
2.57,-3.08,0.82,0.76,-1.05,1.06,-2.6,7.47,2.85,-87.09
2.23,-1.96,-0.12,2.73,-0.88,-0.9,-0.34,2.84,9.89,43.54
0.32,-1.41,-1.17,1.43,-0.04,1.23,-1.02,9.55,-7.77,-37.82
1.28,-2.14,0.21,2.98,-0.81,0.89,-0.6,0.29,7.4,103.71
3.06,-2.25,-0.71,0.75,-1.53,0.95,1.08,8.27,5.68,77.35
2.56,-0.98,-0.98,2.53,-0.53,-0.38,-0.11,-7.49,10.74,120.89
1.43,-1.19,0.94,1.45,-2.45,1.24,0.86,2.76,11.42,130.63
2.73,-0.74,1.52,2.2,-2.73,0.97,-1.12,-10.11,0.39,162.15
1.72,-2.21,0.15,0.74,-2.99,-0.04,-1.35,0.51,0.76,-228.04
1.32,-1.56,1.47,0.42,-0.21,-0.06,0.96,2.75,13.41,134.07
0.2,-2.93,1.45,0.52,-0.22,1.0,-0.96,8.05,-8.67,-53.86
3.01,-1.28,-1.52,2.79,-2.22,0.07,-1.74,2.1,5.36,-50.99
0.11,-0.42,-0.35,2.82,-0.55,1.42,0.15,0.37,2.74,182.2
0.18,-1.98,1.3,0.72,-2.0,0.94,0.32,9.84,-8.19,-29.79
3.13,-0.48,-0.78,0.42,-1.54,0.03,-2.97,-4.93,6.91,-125.48
2.39,-0.01,1.14,1.33,-1.1,-0.04,-0.28,-12.17,-3.45,196.52
1.85,-2.35,1.25,2.27,-0.82,-0.37,0.57,-3.1,9.34,137.51
0.33,-0.45,0.14,0.45,-0.11,-0.36,0.86,16.05,4.47,49.27
1.8,-0.13,-1.42,2.3,-0.14,1.56,-0.06,-5.82,5.03,224.03
0.32,-0.63,-0.82,1.83,-0.83,1.14,-0.48,13.7,2.43,30.37
2.81,-2.91,-0.58,2.46,-0.22,1.32,1.01,-2.67,2.88,222.88
1.52,-0.89,-0.76,1.72,-1.81,-0.39,0.41,11.52,3.67,-11.46
1.0,-2.57,0.64,2.66,-1.62,-0.17,-2.79,5.04,-0.53,-163.29
2.09,-2.38,-0.52,0.25,-2.75,1.21,-1.35,-1.11,-2.66,-197.67
2.63,-0.13,1.05,1.03,-3.09,0.49,-2.65,-5.64,2.48,-38.39
2.39,-1.65,0.17,0.35,-0.62,-0.03,-0.78,8.84,10.25,-9.74
0.52,-0.04,0.68,2.08,-1.57,0.58,-1.8,3.33,9.96,25.78
0.6,-2.73,-1.39,2.31,-2.61,0.16,0.38,-7.3,1.03,-187.93
0.44,-1.41,-0.46,0.03,-2.35,-1.47,-0.57,5.82,-1.14,-331.74
3.12,-2.18,-0.7,1.19,-0.56,1.25,0.09,0.57,11.19,126.62
1.45,-2.75,-1.21,0.77,-1.97,1.27,1.14,-4.82,-6.54,-74.48
2.75,-2.07,-1.05,2.37,-0.44,-0.06,-0.72,2.9,10.65,44.69
0.46,-2.86,-1.43,0.7,-2.22,0.53,0.13,-2.33,7.97,-268.72
0.99,-2.05,-0.34,2.78,-2.99,-0.96,-2.02,0.99,-1.47,-262.99
1.87,-0.47,-0.37,2.11,-2.84,-1.06,-0.08,4.34,4.15,-48.13
1.77,-2.49,-1.16,0.84,-2.59,-0.05,-2.36,-0.04,-0.68,-346.07
2.05,-0.38,-1.25,2.65,-1.46,-1.08,-3.08,-1.63,8.27,-146.1
2.95,-0.04,-1.01,2.81,-1.44,-1.16,-0.77,-8.89,5.17,76.78
1.3,-2.79,-1.02,0.32,-2.02,-0.38,-2.21,-1.93,-0.16,-389.61
0.67,-1.0,-0.01,2.61,-2.79,-0.77,-2.02,5.47,-1.4,-189.65
0.11,-1.85,-0.99,1.67,-2.64,1.12,-2.98,-1.37,-3.72,-318.56
0.93,-2.31,-1.31,0.45,-0.28,1.25,1.04,-0.69,-7.92,-13.18
0.15,-0.8,-1.47,1.08,-0.57,-1.55,-2.17,3.27,-5.84,-305.39
2.7,-0.67,-1.15,1.28,-1.67,-0.85,-1.1,1.66,5.13,-83.65
1.73,-1.92,0.56,0.49,-0.16,-0.38,-1.38,11.53,5.01,-60.73
0.53,-1.33,0.88,1.89,-0.01,0.12,0.91,0.78,6.85,171.31
1.5,-1.78,1.46,0.69,-0.7,-0.73,-0.0,8.29,10.93,25.21
0.34,-0.18,0.89,1.93,-1.55,-1.15,-2.27,5.34,4.69,-114.02
0.09,-1.96,-1.5,2.66,-1.96,0.94,-1.3,-3.89,-7.11,-173.61
0.62,-1.05,-0.19,1.14,-0.85,0.06,0.77,15.48,-0.08,28.65
2.7,-1.96,0.11,0.01,-1.12,-1.06,-0.35,5.66,0.97,-95.68
2.5,-1.44,0.18,0.36,-2.66,1.24,1.32,3.82,9.3,85.94
2.02,-2.56,-1.07,2.28,-2.52,-0.15,-2.19,-0.06,-2.49,-240.07
1.57,-2.32,-0.35,1.98,-2.51,-1.26,-0.99,0.14,-0.94,-222.31
1.74,-1.23,1.0,2.42,-1.35,0.27,1.34,-5.61,4.29,240.07
2.64,-0.84,-0.55,1.78,-2.76,-0.28,-1.07,1.63,4.72,-61.88
2.79,-0.49,-0.96,1.66,-0.26,-0.04,-1.24,-10.2,10.04,83.65
2.19,-2.79,0.87,2.68,-1.47,1.43,-3.03,0.84,4.53,-6.88
0.78,-0.47,0.6,1.54,-1.05,-0.53,-3.06,4.35,8.43,-125.48
1.63,-0.38,-1.25,2.64,-0.9,-1.55,-0.07,5.46,9.31,6.88
0.66,-0.71,-1.21,2.49,-0.12,0.5,-2.48,8.7,4.21,-49.85
2.41,-1.73,-0.72,2.02,-1.95,-0.73,1.2,8.19,5.1,28.65
1.22,-1.06,1.24,0.27,-0.24,-1.52,-1.67,5.88,7.49,-100.84
2.66,-1.32,-1.41,1.65,-0.39,1.23,-2.31,2.36,10.16,6.3
2.88,-1.31,-1.07,1.76,-3.02,0.47,-0.7,3.77,1.75,-56.72
2.88,-0.32,-0.36,2.87,-0.34,1.15,-2.42,-5.13,-2.56,198.24
1.72,-1.57,0.79,0.86,-0.5,1.47,0.05,-1.03,11.41,161.57
0.47,-2.11,1.41,1.46,-2.15,0.12,-2.7,6.24,-2.48,-200.54
2.09,-3.05,-1.47,0.12,-2.45,1.52,-2.52,-3.59,0.63,-330.02
2.3,-2.7,1.14,0.93,-0.93,0.62,-2.19,6.29,7.35,-47.56
0.99,-0.27,0.22,2.4,-1.84,0.38,-2.9,3.0,8.01,-58.44
2.21,-2.65,0.85,1.85,-2.79,0.48,0.79,7.97,4.16,42.4
2.1,-2.97,-1.39,0.76,-2.04,-0.28,0.47,-7.76,-1.12,-191.94
2.64,-1.06,-1.13,1.72,-0.11,-0.6,0.56,-3.36,13.8,115.74
1.5,-2.25,1.25,0.41,-2.43,1.38,-2.34,6.36,-0.42,-142.09
1.11,-1.84,0.55,0.18,-0.82,-0.76,0.96,11.65,-5.66,-35.52
0.82,-0.75,-1.09,0.48,-2.63,1.51,-1.52,2.43,-3.74,-182.2
0.5,-3.04,1.55,0.28,-1.21,-0.99,0.17,-2.19,-7.84,-156.99
1.08,-1.17,0.34,0.1,-0.47,0.12,-2.57,11.32,1.8,-147.25
2.31,-2.67,-0.16,0.56,-1.5,-1.23,-1.55,2.21,-1.52,-242.93
2.09,-0.6,-1.35,2.27,-2.9,-0.17,-0.35,5.09,1.85,-57.87
2.86,-0.29,0.82,0.32,-0.07,1.24,-2.47,-12.67,-1.9,138.08
1.04,-0.88,0.92,0.9,-2.72,1.43,-2.73,6.56,4.73,-116.88
0.02,-2.28,-0.35,0.79,-1.77,1.28,-0.97,-8.28,-5.99,-187.93
1.34,-1.52,0.63,0.19,-0.49,-0.26,-1.66,11.75,2.22,-101.41
0.38,-1.42,-1.03,1.8,-1.25,-0.46,-1.13,1.43,-8.96,-178.19
0.08,-1.46,-1.39,1.57,-1.5,1.35,-2.12,-2.54,-8.19,-198.82
2.48,-0.09,-0.22,2.31,-0.07,0.31,-0.13,-6.82,-4.49,262.99
2.98,-2.2,-1.42,2.13,-0.57,1.46,-1.53,2.87,8.75,48.7
2.31,-0.45,-0.35,1.84,-0.29,-0.72,0.62,-11.38,8.67,169.6
0.71,-0.78,0.91,2.64,-2.61,0.32,-1.57,8.56,5.79,-21.77
0.01,-1.97,0.5,2.01,-0.95,-1.1,-1.69,3.94,-6.81,-182.77
1.4,-1.98,-1.39,1.64,-1.53,0.85,-2.25,2.04,-6.24,-186.78
0.58,-2.43,0.15,1.02,-1.97,-0.17,0.41,-3.41,-8.72,-138.08
2.12,-2.8,-1.15,1.1,-2.66,1.08,-1.45,-4.28,-3.31,-215.43
1.7,-0.72,1.31,1.3,-1.73,-0.88,-2.32,-1.58,7.39,-76.78
2.62,-0.6,-0.06,0.62,-2.2,-0.06,-1.41,-0.47,6.64,-62.45
1.17,-2.95,-0.89,0.32,-1.77,-0.36,-0.46,-4.94,3.88,-283.04
2.13,-2.78,-0.52,1.55,-2.51,0.3,1.03,3.74,-7.1,-45.84
2.63,-0.8,-1.0,1.07,-0.12,1.44,-0.99,-6.48,12.08,127.77
2.91,-0.24,-0.33,1.58,-2.22,0.47,-1.13,-8.65,8.45,59.59
2.11,-3.12,0.42,1.06,-2.45,-0.94,1.43,1.12,-5.57,-85.37
0.39,-2.2,-0.3,1.91,-2.57,1.24,-0.34,-0.08,-9.91,-107.14
1.87,-1.68,0.36,1.39,-1.97,-0.44,-1.71,6.24,3.24,-124.9
1.74,-2.9,0.77,0.21,-2.35,-1.3,0.7,-1.13,-1.1,-179.34
2.74,-1.27,-0.84,0.32,-3.01,-0.88,-2.33,-0.88,6.38,-301.95
0.15,-2.75,0.99,0.73,-2.35,-1.19,-0.74,-0.3,-0.47,-295.65
1.87,-0.35,-1.18,1.85,-2.69,0.33,1.15,6.35,8.21,56.15
2.66,-2.09,0.63,0.92,-0.86,-0.32,0.92,1.02,13.76,106.57
0.7,-0.14,0.68,2.26,-0.86,0.09,-1.06,-2.23,9.12,95.68
0.8,-1.31,1.35,1.57,-1.21,-1.18,0.39,9.43,7.48,23.49
2.41,-3.02,0.01,1.74,-0.68,1.18,-1.34,7.75,5.44,17.19
2.48,-0.67,-0.8,0.51,-2.63,-1.12,0.6,-1.68,1.87,-93.39
1.82,-1.57,0.17,3.03,-2.12,-1.4,-2.56,2.62,4.33,-150.69
0.04,-2.28,-0.89,1.05,-0.86,0.6,-0.68,-9.44,-6.67,-173.03
2.03,-2.51,0.45,0.08,-2.87,0.65,-1.34,-0.01,-0.82,-201.11
0.53,-1.66,-1.22,0.59,-2.59,-0.21,-0.27,0.02,2.06,-276.74
0.89,-0.11,-0.04,1.27,-1.87,-0.5,-1.41,8.45,4.67,-101.41
0.07,-1.99,-0.03,2.87,-0.56,-0.46,-0.71,8.78,-3.69,-46.41
0.26,-0.73,0.1,2.39,-2.61,-1.44,-0.15,5.43,-4.82,-124.9
1.84,-0.68,-0.5,0.89,-2.61,-0.33,-0.15,4.11,1.6,-88.24
0.2,-2.94,-1.5,2.83,-1.9,0.29,1.56,-5.26,-3.09,-83.65
1.39,-1.48,-0.45,0.75,-2.18,0.9,-0.01,8.94,-5.23,-61.88
0.98,-1.48,0.25,3.1,-1.01,-0.12,-2.11,4.89,4.91,-22.35
2.39,-0.22,0.71,0.0,-0.44,-1.27,0.31,-8.77,11.47,84.8
1.06,-2.9,-1.26,1.33,-0.82,-0.74,-1.92,-5.74,-1.48,-300.8
1.75,-0.75,-0.45,2.0,-2.2,1.07,1.19,1.53,11.86,149.54
0.04,-1.87,-0.97,1.94,-1.49,1.13,0.01,1.12,-11.51,-69.33
0.46,-1.92,-0.46,1.56,-1.55,1.19,-1.73,3.12,-10.21,-140.37
0.83,-2.22,1.46,0.16,-0.88,0.16,1.2,13.16,-0.93,40.68
2.05,-2.43,-0.97,0.1,-0.22,0.49,1.49,6.33,-6.86,29.22
2.05,-0.99,1.13,1.19,-2.59,1.48,0.35,-5.83,10.78,150.11
3.05,-1.46,-0.42,2.76,-2.24,1.1,-2.29,-3.77,7.8,28.65
0.2,-0.38,-0.47,2.73,-3.01,0.13,-2.69,6.57,-2.22,-199.96
1.9,-2.3,1.32,2.04,-0.42,0.32,-2.63,-1.48,6.51,13.18
1.71,-2.97,0.82,0.75,-1.42,0.96,0.52,10.97,-1.92,21.2
0.96,-2.0,0.75,1.61,-2.2,-0.52,0.82,9.82,-4.16,-33.23
1.75,-1.52,1.41,2.67,-2.32,-0.26,1.14,-2.99,8.65,164.44
1.38,-2.77,-0.56,1.15,-0.15,-0.62,-0.16,2.8,-11.12,-99.12
3.09,-2.87,0.3,3.03,-1.71,-0.05,-2.17,0.93,4.85,-21.77
3.03,-1.93,1.36,2.13,-2.67,-0.62,0.11,-3.38,8.83,80.79
2.83,-2.86,-1.45,0.86,-0.78,0.76,-2.88,2.49,-6.28,-201.68
3.01,-1.64,-0.42,2.8,-0.47,0.09,-3.0,-5.16,3.38,21.2
2.64,-0.99,-0.84,2.3,-2.02,-1.34,-0.97,1.27,4.83,-69.9
1.63,-3.1,-0.33,1.14,-1.86,-1.31,0.32,-4.78,-2.93,-201.11
2.86,-0.59,-0.78,2.04,-0.24,0.06,-1.39,-11.99,5.58,112.3
1.33,-1.52,-0.15,0.4,-2.24,0.62,-2.77,5.57,-0.96,-248.09
2.74,-1.88,0.84,2.45,-0.46,1.14,-2.11,-6.45,0.47,155.84
2.02,-1.15,-0.36,1.48,-1.2,-0.2,-1.55,6.96,8.79,-55.0
2.61,-2.44,1.39,2.72,-2.58,-1.43,-0.16,3.86,5.34,6.3
2.37,-1.68,-0.88,2.02,-0.87,-0.05,-1.1,7.37,8.83,-10.89
2.71,-2.25,0.66,2.41,-0.18,0.01,-1.15,-7.63,4.41,126.62
1.17,-1.76,-0.81,2.84,-0.81,0.57,-0.45,8.56,6.43,42.97
0.23,-2.44,0.3,1.71,-0.55,1.27,0.5,7.87,-2.62,58.44
2.65,-0.32,-0.83,1.46,-0.29,1.55,-2.97,-8.83,7.24,71.62
2.75,-2.01,-0.0,0.8,-2.81,0.95,0.12,7.02,3.15,-11.46
1.31,-0.44,1.47,2.0,-2.32,-1.11,-1.71,1.8,6.23,-45.84
2.12,-0.4,0.11,1.94,-0.27,1.21,-3.1,-6.78,4.67,92.25
1.42,-1.81,0.8,1.21,-0.45,-0.88,-0.14,10.7,8.41,8.59
2.19,-0.45,-1.1,0.03,-1.96,-0.2,1.32,5.45,2.23,-9.74
0.44,-2.84,1.39,2.86,-2.77,-0.89,0.47,2.55,-7.19,-76.78
0.77,-2.07,0.29,2.5,-0.18,0.72,-2.13,6.02,4.11,-5.73
3.01,-0.54,-0.96,1.95,-0.28,0.38,0.11,-13.6,1.22,210.28
1.22,-0.75,0.31,0.38,-1.97,-1.38,1.31,7.73,1.76,-50.42
2.15,-3.12,0.34,2.86,-2.05,-0.59,1.23,6.99,1.81,46.98
3.05,-1.34,-0.66,0.64,-2.75,0.23,-2.21,-1.47,3.08,-174.18
3.1,-2.61,-0.45,0.78,-1.36,-1.05,0.62,7.42,-2.64,-55.58
2.63,-1.64,-1.53,1.51,-1.92,-1.16,-0.13,1.37,-2.05,-128.34
3.11,-0.9,-0.27,1.1,-1.32,0.78,-2.8,-7.37,7.9,-17.19
1.24,-1.65,0.77,3.03,-0.35,-0.02,-0.89,-3.27,4.31,122.04
1.52,-1.76,-0.33,0.68,-2.13,-0.32,-3.12,6.02,-1.39,-312.83
2.49,-0.42,0.64,2.36,-1.57,0.7,-0.98,-10.64,-0.84,184.49
1.72,-2.95,-0.11,1.73,-0.83,1.29,-2.7,6.57,-2.96,-106.0
2.68,-1.94,-0.23,2.76,-2.55,0.43,-0.84,4.59,8.39,17.76
1.78,-2.24,-0.95,1.02,-2.15,-0.94,0.81,-2.21,-3.8,-152.98
1.81,-0.85,1.56,1.35,-3.09,-0.8,-1.48,1.4,3.48,-85.94
0.1,-0.2,-1.25,0.31,-1.52,-0.69,-1.29,1.78,-3.24,-260.12
2.04,-2.61,1.21,2.18,-1.82,-1.16,-1.13,5.12,2.47,-73.91
0.62,-0.83,-1.11,0.16,-0.77,0.66,-2.91,4.69,-6.36,-239.5
2.3,-1.1,1.1,3.13,-0.45,-0.35,-2.62,-1.39,1.54,115.16
3.09,-1.29,0.31,0.95,-0.09,1.45,-2.91,-9.87,5.44,86.52
2.82,-2.34,1.29,0.45,-2.32,0.65,0.35,4.01,9.4,51.57
1.32,-0.14,0.84,0.67,-1.03,-1.56,-1.63,0.6,8.32,-87.66
1.17,-2.91,-1.47,1.07,-1.18,-0.75,-2.1,-4.76,0.63,-353.51
3.13,-1.8,-0.87,2.32,-1.36,-0.1,-2.26,0.47,7.33,-53.86
2.17,-0.14,0.18,2.63,-2.48,-0.2,0.48,-9.05,8.87,151.26
1.86,-2.65,-1.32,0.74,-2.79,1.55,-0.19,-5.56,-3.95,-160.43
0.48,-1.83,0.73,1.27,-2.15,0.05,-2.0,4.89,-5.44,-197.67
2.69,-3.02,0.87,2.69,-1.81,0.24,1.09,-2.39,7.26,157.56
1.01,-1.34,0.51,1.58,-2.76,1.29,-0.96,11.39,1.27,-38.39
2.75,-1.44,1.25,2.54,-2.32,-0.21,-2.61,-4.75,4.57,-2.29
1.38,-3.06,0.46,2.4,-1.81,0.23,-2.41,3.97,-3.33,-161.0
0.55,-1.17,0.27,2.76,-0.06,-0.74,1.39,0.32,5.3,171.89
2.67,-2.81,-0.44,2.28,-3.05,-0.12,1.44,5.32,-3.11,-1.72
1.67,-3.05,-1.09,2.32,-2.52,-0.72,-2.23,-1.94,-0.88,-322.0
1.62,-0.49,-0.59,2.64,-1.38,-0.88,1.24,0.15,12.45,123.76
1.44,-2.32,-0.16,2.28,-1.36,1.05,1.29,6.46,4.46,127.2
2.06,-0.89,-0.52,2.31,-0.72,0.92,-2.52,-2.71,9.88,36.67
2.86,-2.9,0.36,2.98,-1.01,-0.93,-2.14,0.65,3.55,-44.69
3.09,-1.75,0.5,0.72,-0.21,0.5,-1.65,-7.92,11.17,68.75
0.25,-2.64,-1.15,0.4,-0.84,1.27,0.97,-8.57,-1.77,-99.69
0.95,-2.21,0.11,2.62,-0.1,-0.67,-1.52,7.61,2.09,-46.98
1.85,-2.47,-1.16,2.41,-0.9,-0.2,-2.51,5.02,-2.22,-170.74
2.69,-1.86,-0.79,0.73,-2.62,-0.95,0.03,-1.64,0.63,-158.71
0.39,-0.89,1.4,1.11,-0.97,0.83,-1.6,7.94,9.18,15.47
0.47,-0.27,-0.86,2.05,-1.94,-0.95,1.01,11.62,-2.42,-28.07
1.25,-1.29,0.58,2.92,-0.2,-1.35,-2.58,1.7,3.28,-38.39
1.54,-0.06,0.02,0.32,-0.6,0.74,-2.24,2.18,13.87,-16.04
0.03,-0.7,0.31,2.41,-0.71,1.15,-1.82,6.19,5.36,38.39
0.73,-2.36,-0.14,2.51,-3.01,0.64,-2.76,0.52,-3.63,-251.53
1.85,-3.01,1.0,2.54,-2.8,-0.1,0.98,7.66,0.29,26.36
1.17,-3.07,-1.1,0.02,-0.76,-1.06,1.53,-9.1,3.4,-187.36
2.82,-1.17,0.18,2.69,-2.19,-0.25,-2.2,-4.15,6.94,-6.88
2.53,-2.2,-0.72,0.05,-2.37,-1.19,-0.28,-0.37,3.29,-239.5
0.86,-0.27,0.87,1.23,-1.54,1.43,-0.3,-0.99,12.37,130.63
1.46,-0.08,1.29,1.37,-1.1,-0.57,1.39,-9.31,4.91,215.43
1.85,-2.43,1.15,2.5,-1.82,-0.2,-2.66,2.95,4.6,-92.25
2.07,-0.59,-0.85,0.13,-1.85,0.59,1.47,7.63,6.53,55.58
0.83,-1.1,-0.78,2.53,-1.59,1.06,-1.47,11.68,2.02,-29.79
1.16,-1.4,-0.42,1.8,-3.1,-1.21,-0.73,1.18,1.91,-223.45
2.62,-1.29,0.46,0.46,-0.35,0.29,-2.15,-3.45,12.56,2.29
2.78,-0.95,1.12,0.28,-2.53,-1.03,-0.95,-2.93,1.96,-73.34
2.31,-2.64,-0.99,2.6,-2.7,1.16,-0.71,6.22,-4.17,-55.58
3.0,-1.86,0.62,0.71,-0.52,1.17,0.09,-9.78,8.84,183.92
2.6,-1.19,-0.61,1.15,-2.36,0.83,-1.47,4.89,5.73,-60.16
0.18,-0.85,-1.45,2.98,-0.82,0.05,-0.13,12.23,-1.12,-2.29
2.97,-2.31,0.22,0.77,-2.49,-0.76,-0.88,0.53,0.48,-142.09
2.98,-1.47,0.52,0.62,-1.01,-0.78,0.5,-3.65,13.15,77.92
1.84,-2.17,1.55,2.21,-0.75,1.19,1.13,-3.23,0.29,286.48
2.55,-1.6,-1.57,0.45,-0.79,0.59,0.32,10.14,-1.52,-2.86
0.95,-1.76,-1.54,1.29,-2.59,-1.42,-1.83,3.37,-1.62,-395.34
1.49,-2.2,-0.73,2.78,-3.05,-0.28,-1.54,-0.68,-3.0,-202.25
0.71,-0.88,-0.8,1.48,-2.08,-1.3,-0.2,3.06,-2.98,-175.9
1.1,-2.87,1.51,1.38,-2.02,1.5,-1.24,9.77,-0.65,-36.67
0.49,-0.59,0.93,2.57,-0.81,1.34,1.27,1.24,-0.54,297.94
0.02,-0.55,-0.08,0.69,-0.53,0.37,-1.79,13.2,-6.12,-107.14
1.64,-2.64,0.37,2.12,-2.86,1.45,-1.45,6.89,-3.29,-78.5
0.15,-0.6,-0.71,1.79,-0.27,-0.74,0.78,14.71,-0.61,22.92
1.8,-0.25,0.31,0.81,-2.36,-1.09,0.03,2.53,5.77,-42.97
2.6,-0.22,-1.52,2.1,-0.27,-0.69,0.55,-10.14,10.12,146.1
0.76,-0.54,-1.26,2.95,-1.06,-0.43,-2.32,7.81,3.0,-108.86
2.09,-0.95,-1.33,2.84,-2.5,-1.15,0.96,6.38,3.32,-2.29
1.31,-1.66,-1.04,1.1,-2.76,1.16,-1.81,0.44,-2.89,-211.99
0.75,-1.71,1.44,1.37,-2.97,-1.53,-3.0,5.69,1.26,-323.72
3.06,-2.3,-1.09,1.16,-1.63,1.03,1.23,7.83,4.22,83.65
0.32,-2.42,0.02,1.62,-0.96,-0.28,-0.14,1.52,-12.03,-105.42
3.08,-2.31,-0.17,0.59,-1.26,1.13,1.41,4.05,9.19,141.52
1.89,-1.87,1.55,1.58,-0.19,0.1,-0.32,-8.03,6.54,156.99
2.43,-2.78,0.04,2.46,-1.71,1.49,-1.87,5.35,5.66,3.44
0.24,-1.12,1.12,0.27,-2.72,-0.58,-0.56,2.35,-1.87,-191.94
1.57,-1.91,0.94,1.67,-1.06,0.28,-3.04,3.95,7.32,-88.81
1.14,-0.28,-0.95,2.76,-2.29,0.29,-2.45,6.7,5.11,-101.99
2.22,-0.22,-1.37,1.49,-1.67,-0.7,-1.95,1.37,6.32,-126.05
1.36,-1.37,-0.6,2.51,-1.89,0.25,-2.81,7.1,2.63,-146.1
0.63,-0.27,1.45,2.92,-1.01,-0.94,-0.95,-1.26,4.22,104.85
1.53,-0.0,-0.49,0.62,-3.13,0.51,-2.78,0.87,6.51,-214.29
1.28,-0.08,1.53,2.39,-0.92,1.43,0.13,3.25,-1.52,330.02
1.25,-0.09,0.3,0.61,-0.48,-1.17,-2.0,3.08,10.36,-90.53
1.36,-0.12,0.09,2.96,-1.16,0.32,-1.43,-5.06,6.48,115.74
1.42,-0.12,-0.66,2.55,-1.95,0.54,0.85,-1.33,12.29,150.69
0.85,-1.41,-1.28,2.94,-0.11,0.65,-2.46,7.14,3.12,-46.98
2.9,-1.05,0.96,0.31,-2.26,0.68,-0.15,-5.82,10.72,79.64
2.76,-2.26,0.12,2.48,-0.57,-0.03,1.06,-6.92,5.6,203.97
2.51,-1.88,1.44,2.29,-0.99,-1.53,-2.08,-2.73,4.05,-13.75
0.54,-0.58,-0.38,2.01,-2.28,1.55,-1.02,12.9,2.57,-9.17
1.84,-1.17,-0.5,2.06,-0.08,0.48,0.92,-3.62,8.68,203.4
2.83,-3.14,1.03,2.69,-0.99,1.41,-1.81,-5.42,3.3,115.74
2.22,-0.1,-0.65,2.85,-2.6,-0.96,-1.01,0.34,7.88,-14.32
0.93,-0.6,-0.55,2.31,-0.94,1.11,-0.55,4.14,11.13,97.98
0.64,-1.42,-0.68,0.92,-0.54,0.22,0.7,11.48,-8.53,-9.17
2.96,-1.31,-0.43,1.54,-1.59,0.68,-0.27,-3.85,13.43,90.53
1.96,-2.49,0.44,1.49,-2.42,-0.14,1.2,8.93,-1.03,2.29
2.02,-2.18,-0.51,2.71,-0.09,1.38,0.19,-3.49,3.46,201.68
3.1,-0.77,1.11,1.26,-2.32,0.4,-0.7,-12.01,3.48,119.18
1.53,-0.09,-0.91,1.04,-0.23,0.68,-2.56,4.22,12.14,-30.94
1.44,-2.83,1.25,2.51,-2.09,0.04,-3.02,3.97,1.82,-154.7
0.91,-2.62,-0.8,0.47,-0.51,-1.44,-1.64,-3.7,-2.21,-322.58
2.1,-1.86,1.32,0.67,-0.18,-0.92,1.51,-2.62,12.91,151.26
2.56,-2.82,0.16,1.37,-2.26,1.13,0.02,9.87,1.53,9.17
0.84,-2.06,0.04,0.91,-1.51,0.26,-1.42,3.05,-8.91,-168.45
0.26,-0.33,-0.66,1.87,-0.56,0.63,-2.17,12.22,2.73,-55.0
2.82,-2.65,1.4,0.6,-2.75,1.48,-2.17,3.07,3.98,-72.77
0.74,-1.75,0.24,1.67,-0.22,-0.25,-2.4,9.77,0.1,-112.87
2.68,-2.28,-1.39,0.44,-2.1,0.89,0.67,2.05,-7.16,-62.45
1.19,-1.71,-0.18,1.59,-1.36,0.62,-0.36,13.73,0.13,-12.03
1.49,-1.36,-0.09,0.31,-2.16,1.52,-0.59,10.92,-1.3,-50.42
3.04,-1.7,1.28,0.02,-1.36,-1.03,-1.34,-1.98,5.93,-62.45
0.48,-0.98,-0.11,0.98,-0.26,1.35,0.84,9.89,4.05,131.78
3.05,-2.48,1.28,2.94,-1.35,-0.95,1.4,-7.09,0.57,222.88
0.44,-1.66,1.26,1.87,-2.76,-0.18,-1.88,5.29,-3.42,-166.73
2.43,-0.24,-0.87,2.26,-2.51,1.16,-1.61,-3.28,10.65,35.52
1.18,-2.61,0.84,2.89,-0.16,-0.94,1.33,-0.77,6.18,144.96
1.53,-1.51,-1.19,0.02,-2.37,-0.76,-0.66,1.79,3.59,-283.04
0.11,-1.89,-0.07,2.88,-2.02,0.06,-0.8,5.03,-8.99,-99.12
2.04,-0.56,1.22,2.21,-3.1,-1.21,0.22,0.5,9.0,46.98
2.32,-2.95,-0.53,1.27,-0.95,0.06,-0.78,7.27,-7.78,-89.38
0.41,-0.4,-0.24,2.47,-0.75,0.2,-1.43,8.0,8.03,14.9
1.68,-1.5,-0.36,0.15,-0.59,1.08,-2.29,10.78,-0.35,-104.85
1.29,-0.35,-1.5,1.13,-2.53,0.32,-0.75,3.44,-2.07,-136.94
1.71,-0.75,1.03,1.36,-1.18,0.35,-1.63,-4.25,11.75,50.99
1.35,-0.96,-1.34,2.28,-2.7,-0.57,-0.66,2.36,-2.29,-148.97
1.46,-0.96,1.56,2.75,-2.07,-1.27,1.44,-2.94,7.44,166.73
0.71,-1.61,0.63,1.49,-1.85,-0.49,-1.89,7.35,-2.7,-172.46
0.84,-0.38,-0.12,1.42,-0.39,0.95,-0.23,3.35,12.71,119.75
2.16,-0.77,-1.14,0.45,-0.77,-0.54,1.46,9.59,7.04,48.7
1.15,-0.09,1.46,1.62,-0.65,0.65,-0.97,-7.35,0.79,181.63
1.71,-2.73,-1.25,0.97,-0.62,-0.02,-1.7,-3.93,-7.46,-208.56
1.05,-1.32,1.47,2.06,-2.67,-0.52,-0.98,8.18,3.13,-52.14
0.63,-1.41,-1.19,0.07,-2.23,-0.28,0.04,-0.94,1.87,-250.38
1.26,-1.25,0.2,0.74,-3.08,0.02,-1.75,2.67,2.34,-221.16
1.31,-1.73,-0.67,0.41,-1.77,0.86,-0.12,3.71,-8.96,-97.98
3.02,-2.17,-0.38,1.74,-3.03,-1.51,-3.08,1.5,3.59,-309.97
2.13,-0.92,-1.28,1.63,-0.41,0.76,-2.65,4.11,9.74,-42.4
0.16,-0.3,-1.0,2.3,-0.77,0.34,-2.8,9.96,0.49,-118.6
1.42,-1.0,1.37,0.64,-0.36,1.09,1.5,-3.61,7.22,267.0
0.22,-1.69,-0.55,1.98,-2.36,1.14,1.17,5.51,-8.59,-5.16
1.29,-3.0,0.86,2.68,-2.95,-0.17,-0.61,2.33,-6.55,-108.86
0.7,-0.54,0.29,1.36,-2.98,-0.5,-1.03,4.51,-0.33,-154.7
1.79,-0.28,1.55,1.79,-0.24,0.27,-1.62,-4.86,-2.58,186.78
0.63,-0.24,0.84,2.33,-3.07,-1.56,-2.77,4.38,4.35,-220.02
3.14,-0.14,1.38,2.81,-3.0,-1.28,-0.97,-8.83,0.7,111.15
1.08,-1.28,1.16,0.45,-0.52,-0.1,-3.14,7.04,8.16,-134.65
0.78,-1.66,0.2,2.87,-0.96,-1.42,-0.79,8.55,0.1,-56.15
0.43,-1.26,-1.03,0.6,-0.64,-1.18,-2.01,1.63,-5.77,-291.64
1.13,-1.47,-0.73,0.23,-0.25,0.5,-1.66,7.96,-8.18,-128.92
1.34,-2.41,0.49,1.34,-1.52,-0.13,-2.26,6.56,-3.05,-180.48
0.55,-1.91,0.22,0.02,-2.88,-0.33,-0.06,1.43,0.92,-251.53
0.02,-2.98,1.22,2.29,-2.24,1.21,-0.74,4.53,-7.54,-69.9
1.23,-1.3,-1.18,0.73,-0.36,-1.29,0.71,6.75,-7.91,-83.65
1.6,-0.21,0.2,1.91,-2.15,0.03,-1.19,1.46,11.95,10.89
0.32,-2.79,-0.76,0.98,-1.91,0.5,0.41,-9.61,1.14,-186.21
0.73,-1.61,0.06,3.12,-1.96,0.67,-2.36,7.73,0.29,-77.35
2.54,-2.95,-0.82,3.09,-2.07,-1.12,0.69,5.4,-3.98,-36.67
2.13,-2.47,1.0,2.62,-2.88,-0.96,-0.25,6.67,0.31,-46.41
0.66,-2.1,1.14,2.93,-0.62,0.0,-0.4,0.29,6.56,92.25
0.66,-2.59,-0.24,3.13,-2.73,-1.0,-2.32,-0.78,-1.86,-291.64
0.45,-2.21,-1.3,2.93,-0.19,0.74,-1.42,7.77,-3.77,-57.3
1.71,-2.93,1.39,2.47,-1.93,-0.57,0.24,7.48,4.66,21.77
0.59,-2.16,0.19,0.72,-0.7,0.96,-1.38,6.83,-10.96,-101.99
0.06,-2.54,-1.5,1.19,-0.05,-1.51,-2.57,-4.76,-0.28,-396.49
1.16,-1.42,0.3,1.87,-1.67,0.08,1.11,10.23,7.96,81.93
2.35,-2.26,0.03,2.45,-1.48,0.1,0.6,2.65,10.63,102.56
1.24,-0.59,1.23,2.49,-1.92,-0.58,0.63,-3.46,9.38,143.24
1.13,-0.34,0.56,0.92,-2.05,0.4,-0.15,8.47,11.52,26.93
1.59,-0.65,-0.34,1.92,-2.22,0.39,1.05,5.35,12.18,99.69
2.67,-2.07,0.74,0.35,-0.08,-0.86,-1.48,3.7,10.0,-41.83
3.04,-3.04,1.5,1.46,-2.23,-1.11,-2.68,-0.58,3.73,-175.33
1.93,-1.22,0.33,2.51,-0.63,1.41,-2.38,-4.31,5.69,111.73
2.52,-2.61,-1.42,2.32,-2.17,0.38,-1.27,2.68,-5.92,-128.92
0.05,-1.7,-1.15,2.24,-1.71,0.4,-1.64,-2.62,-7.93,-201.11
2.37,-2.28,-0.37,0.18,-0.26,-0.91,1.01,11.08,-2.88,-14.9
2.84,-2.06,-0.63,0.91,-0.94,-1.49,-1.15,4.03,1.45,-144.39
3.14,-0.99,0.21,0.1,-0.55,-0.17,-1.42,-6.46,11.04,18.33
0.27,-0.37,1.09,1.34,-0.84,0.99,-1.7,4.55,10.11,44.69
0.4,-1.16,-1.05,2.62,-2.83,-0.24,0.45,1.98,-7.98,-103.71
1.24,-2.44,-0.51,2.91,-0.35,1.4,0.17,0.48,5.36,138.66
2.07,-2.41,1.03,0.2,-2.5,-1.18,1.09,1.89,-0.94,-97.4
2.96,-1.24,1.39,0.89,-2.65,0.9,0.14,-9.81,7.2,136.94
1.2,-1.99,0.09,2.99,-0.95,-0.12,-1.22,6.86,5.61,0.0
2.85,-2.2,-1.04,2.13,-0.73,0.26,1.22,1.57,9.77,142.67
3.04,-0.48,0.95,2.16,-2.29,-1.45,-2.54,-6.12,-0.39,-34.95
0.51,-1.09,1.11,2.28,-2.23,1.14,-0.66,7.01,7.95,60.73
1.02,-2.74,0.96,2.65,-2.16,-0.13,-2.95,4.23,-0.81,-191.94
0.17,-3.0,0.65,0.42,-0.55,0.81,-2.04,-5.63,-8.22,-202.83
1.71,-2.82,-0.78,0.48,-1.08,-0.68,0.67,-6.11,-7.55,-143.24
1.61,-1.34,0.66,1.02,-2.37,-0.25,0.06,9.17,3.49,-34.95
2.99,-0.14,-0.58,0.26,-2.8,1.29,0.66,-5.08,8.39,96.26
2.04,-0.03,0.82,0.76,-2.18,1.21,1.29,-10.39,6.15,224.03
2.07,-2.08,0.89,1.98,-2.18,-1.27,-1.13,4.14,2.5,-98.55
0.45,-1.24,0.92,0.4,-2.32,0.06,-3.06,7.9,-1.52,-274.45
1.13,-1.04,0.59,1.26,-2.26,0.71,0.03,11.57,7.57,24.06
0.41,-0.66,-1.35,0.58,-0.48,1.42,-1.47,8.67,-9.44,-88.81
1.84,-3.12,1.04,1.01,-0.91,-0.88,-2.66,5.91,-0.04,-210.85
1.88,-0.2,0.6,0.85,-1.34,-1.03,1.48,-5.44,12.92,128.34
1.27,-0.12,-0.46,1.07,-0.31,-1.14,-1.22,7.44,9.99,-52.14
1.83,-2.34,0.01,2.68,-1.83,0.02,0.6,8.4,5.87,55.58
2.67,-0.68,0.01,1.72,-1.44,-1.34,-3.06,-7.84,6.11,-121.47
0.89,-0.71,0.78,0.84,-3.02,0.0,-2.53,4.57,3.61,-214.86
2.96,-2.09,1.02,1.39,-0.25,-1.05,0.2,-9.02,9.01,124.9
0.47,-1.46,-0.98,1.38,-2.31,1.56,-1.19,0.8,-9.12,-144.96
0.79,-0.87,0.54,1.36,-0.68,-0.28,-1.05,11.01,8.8,-10.89
1.43,-1.69,-0.95,0.5,-2.65,0.17,0.93,-0.98,-3.4,-129.49
2.38,-1.85,-0.08,2.56,-2.04,1.44,-1.16,0.46,10.51,71.62
0.97,-1.35,1.16,2.95,-1.77,1.38,-2.39,1.49,5.36,54.43
0.75,-3.04,0.66,2.37,-0.28,-1.0,-1.9,4.36,-2.78,-139.8
1.98,-1.47,-0.77,1.69,-2.57,-1.02,-3.0,4.69,3.25,-295.65
0.21,-0.24,1.39,2.42,-1.19,0.33,-0.63,-2.76,5.14,131.21
2.92,-1.06,1.13,1.94,-2.7,1.56,-1.72,-9.8,3.54,118.6
0.46,-1.95,0.26,1.55,-0.81,0.93,-0.68,12.55,-3.66,-13.75
0.07,-2.64,-1.26,0.2,-1.06,1.36,-0.63,-7.97,6.38,-226.89
0.61,-0.45,-0.93,1.74,-0.36,-1.31,-3.04,9.62,3.38,-214.29
0.3,-0.52,-0.58,1.1,-1.44,-0.63,-1.82,7.25,-4.5,-205.69
0.05,-2.7,-1.33,2.57,-2.49,0.49,-2.05,-3.5,2.55,-312.83
0.44,-0.79,0.86,0.04,-1.51,-0.99,-2.42,8.59,0.72,-250.38
2.34,-1.9,0.4,1.6,-0.75,0.65,1.26,-4.0,9.51,206.26
2.96,-2.44,1.38,0.24,-1.42,-0.48,-0.09,4.33,8.78,8.59
1.57,-1.29,1.56,2.42,-0.7,0.19,-2.94,-1.97,2.72,46.41
1.0,-0.27,0.26,2.23,-2.32,1.53,-2.96,3.91,7.99,-30.37
1.48,-2.03,-1.13,0.54,-1.61,-1.36,1.26,-2.99,-3.19,-163.29
0.43,-1.2,1.07,1.62,-0.92,-0.5,-0.04,11.39,6.8,26.36
1.15,-2.77,0.24,2.4,-1.09,1.46,-2.98,5.58,-0.75,-91.1
1.25,-0.02,0.01,1.15,-0.06,-1.54,-0.53,3.06,13.03,14.9
1.71,-1.91,-0.27,3.07,-0.53,-0.86,1.44,-0.33,7.85,151.83
1.82,-2.34,1.56,1.22,-1.39,-0.76,-0.48,7.66,6.55,-21.2
0.82,-2.8,0.06,3.06,-0.16,-0.66,-1.22,6.22,0.36,-51.57
0.36,-0.32,-0.21,1.24,-0.5,-0.8,1.38,14.06,5.81,65.89
2.94,-1.34,0.2,2.66,-2.7,-0.55,-2.1,-1.73,5.87,-50.99
1.86,-0.24,-0.0,2.78,-0.05,1.03,0.87,1.43,0.63,358.1
2.57,-1.89,-1.31,3.04,-1.67,0.42,-2.01,4.5,5.22,-48.7
0.52,-1.51,-1.57,2.16,-2.74,1.51,-0.53,-0.28,-7.77,-123.76
2.91,-2.48,1.22,0.82,-0.2,-1.27,1.38,-4.38,11.41,136.36
2.07,-0.68,-1.22,2.11,-1.01,0.36,-1.56,3.18,12.03,4.01
3.13,-0.74,0.18,0.34,-1.48,1.32,0.35,-13.32,7.2,177.62
2.88,-0.48,0.08,1.24,-0.47,0.16,-2.39,-11.91,3.7,58.44
2.97,-2.93,-1.29,2.93,-1.34,-1.44,-2.13,1.55,-0.53,-185.07
1.78,-0.57,0.71,2.23,-0.05,0.48,1.02,-1.65,-1.08,320.86
3.06,-0.38,1.39,2.66,-1.78,-0.95,-1.07,-7.46,-3.4,167.88
1.96,-2.92,0.6,1.77,-2.6,-1.54,-0.86,-0.39,-0.39,-205.69
1.48,-2.34,0.13,1.34,-2.89,1.2,1.51,7.59,-2.7,24.64
0.5,-3.04,-0.16,3.11,-0.53,0.32,-1.77,5.1,-2.59,-89.95
2.49,-1.66,-0.81,0.47,-0.48,-0.76,0.82,11.23,3.08,4.01
0.52,-3.06,1.16,2.83,-1.88,0.1,-2.64,3.06,-2.42,-170.17
0.23,-0.14,-1.48,1.6,-2.46,0.25,0.43,5.21,-7.86,-89.95
2.42,-0.97,0.07,1.15,-1.05,0.06,1.46,-6.57,12.75,179.91
1.65,-2.01,1.08,0.57,-2.37,-0.01,0.03,8.27,-0.94,-60.73
0.47,-1.01,-1.21,1.15,-1.89,-0.01,-0.73,-0.49,-6.82,-185.07
1.31,-3.07,-0.28,1.37,-1.08,-0.76,-0.83,-3.91,-7.27,-191.37
0.38,-2.77,0.83,0.3,-0.44,0.94,0.42,5.13,-10.69,-19.48
0.75,-1.85,-0.57,0.34,-2.09,1.52,1.49,2.39,-8.11,-23.49
1.8,-0.46,0.61,2.24,-0.96,1.12,-2.55,-6.11,4.9,103.13
0.85,-1.4,0.96,1.73,-1.24,1.5,1.07,2.07,6.51,198.82
0.04,-0.92,0.84,3.06,-2.93,-1.21,0.52,9.75,-5.06,-34.38
2.37,-1.74,1.01,2.54,-2.32,-0.59,0.35,-1.31,10.84,92.82
2.38,-1.79,0.26,0.56,-0.78,-0.44,-1.37,7.75,7.1,-67.61
2.42,-2.89,-0.28,2.81,-2.88,1.03,-1.63,5.53,-2.76,-81.36
2.56,-1.35,1.36,0.67,-1.51,-1.57,-1.1,-2.25,5.67,-53.86
1.5,-2.39,-0.9,0.71,-2.76,-0.32,-1.67,1.41,0.74,-334.03
0.67,-0.2,0.38,2.68,-0.95,1.52,-0.57,-2.34,1.95,202.25
2.43,-1.05,0.35,0.69,-2.33,-0.5,-1.54,0.16,5.11,-111.73
2.62,-1.77,-0.97,2.53,-0.2,-1.31,-1.91,1.5,6.34,-57.87
0.74,-0.4,0.68,1.26,-1.02,-0.43,-2.68,5.65,8.37,-106.0
2.33,-2.43,-0.09,0.7,-0.71,1.33,1.05,7.49,6.13,124.9
0.54,-1.31,1.19,2.63,-1.27,0.65,-0.84,1.27,7.37,91.1
1.47,-1.89,-0.2,0.12,-0.01,-1.02,-2.09,6.83,-3.75,-207.41
1.26,-2.28,1.28,1.08,-3.02,0.44,1.44,8.05,-1.03,11.46
1.16,-2.74,0.4,1.15,-2.51,-1.24,0.13,-1.83,-1.3,-209.13
1.05,-0.6,0.38,2.44,-1.73,-0.83,-0.46,7.1,9.53,14.32
2.55,-2.24,0.91,1.63,-1.49,0.94,-2.01,0.02,10.25,16.62
1.92,-2.4,-0.88,0.18,-2.48,0.34,-0.04,-4.23,-1.34,-192.51
1.03,-0.65,0.11,0.71,-3.1,0.16,-2.65,4.7,4.12,-251.53
3.06,-0.13,1.36,0.6,-0.62,0.03,-1.11,-10.09,-8.68,182.77
2.29,-3.1,1.16,2.88,-0.27,0.02,-0.31,-7.22,2.7,152.98
0.69,-0.38,1.56,0.74,-2.54,-0.39,0.32,8.78,5.4,-0.0
2.08,-0.19,-0.18,1.21,-1.36,-1.41,-2.17,-3.38,8.2,-115.74
2.6,-1.94,0.97,0.46,-1.4,-0.97,-0.46,4.62,6.7,-42.4
2.92,-0.01,1.49,2.86,-0.51,-0.87,-0.45,1.93,-0.92,311.12
1.29,-0.68,1.24,3.1,-2.85,-0.86,-1.08,4.66,8.73,9.17
0.8,-1.03,0.11,1.97,-1.68,0.6,-3.01,8.68,3.53,-128.34
1.24,-1.0,-0.52,1.61,-0.04,-0.36,1.3,6.9,11.08,127.77
1.84,-0.33,-0.6,2.77,-1.57,-1.52,0.9,-0.13,11.63,85.37
1.65,-2.32,0.86,2.11,-3.03,-1.56,-1.67,1.06,1.55,-226.89
2.21,-0.61,1.29,2.7,-0.33,0.79,-1.05,2.38,-1.58,286.48
2.78,-2.45,1.41,3.1,-2.19,-1.27,-2.28,-0.25,3.36,-51.57
1.86,-1.94,0.86,1.14,-0.75,1.18,0.06,0.06,12.05,138.08
0.49,-1.73,-1.02,1.2,-3.11,1.51,1.19,-0.6,-6.8,-84.22
1.18,-0.77,0.97,0.24,-2.05,-0.14,-1.02,7.93,3.37,-91.1
1.72,-0.56,0.39,2.08,-1.94,-0.05,-2.17,0.16,9.8,-30.37
1.76,-1.43,1.45,0.83,-0.8,0.78,0.3,-5.92,11.34,165.58
0.3,-2.94,-1.0,0.34,-0.6,0.12,-1.99,-6.11,5.56,-330.6
1.43,-2.94,0.16,2.26,-1.75,0.78,-0.84,8.3,-4.46,-51.57
2.56,-0.94,-1.07,2.46,-2.04,0.28,-0.68,1.75,11.29,32.66
1.4,-0.81,-1.06,1.66,-2.29,0.68,0.08,11.43,0.96,-19.48
0.38,-0.65,1.35,1.7,-2.92,0.3,1.36,8.64,5.9,87.09
2.1,-0.27,-0.28,1.07,-1.56,1.18,-1.82,-2.06,13.48,24.06
2.41,-2.77,-1.25,1.64,-0.85,0.76,-2.64,4.82,-4.68,-154.7
0.98,-0.17,1.12,0.7,-0.63,-1.25,0.16,2.38,13.4,52.14
1.21,-0.28,-1.23,2.22,-0.26,-1.29,-1.75,6.49,6.89,-79.07
0.74,-1.22,1.22,0.65,-0.74,-1.08,-1.36,10.08,2.71,-102.56
0.72,-0.35,0.37,1.04,-1.34,0.07,0.65,10.98,11.26,66.46
2.65,-2.39,0.37,0.95,-0.13,-0.97,0.35,6.42,11.28,47.56
1.74,-0.04,0.96,2.26,-2.33,0.06,-0.12,-8.82,7.58,144.96
2.88,-0.56,0.37,0.3,-1.82,-0.33,0.58,-5.82,10.58,81.36
1.42,-2.82,-1.13,1.51,-2.05,1.04,-1.86,-5.37,-4.28,-222.88
0.47,-1.62,0.77,1.62,-0.56,0.51,-2.9,8.91,1.7,-97.98
1.82,-2.31,-0.32,0.54,-2.38,0.33,-2.64,2.43,-1.82,-284.19
1.22,-2.86,-0.7,1.37,-0.11,1.49,-1.21,5.57,-7.01,-45.84
2.58,-2.27,0.47,1.43,-1.76,1.42,-1.97,4.55,9.09,-5.73
1.88,-1.33,0.26,2.39,-1.37,-0.23,1.16,-2.44,11.2,158.14
1.63,-1.4,0.87,0.97,-0.3,1.4,1.32,-1.32,7.43,257.26
0.3,-2.86,-1.53,1.08,-0.42,-0.38,-2.29,-5.54,3.78,-349.5
2.84,-0.48,0.16,1.35,-0.31,0.31,0.94,-11.97,-2.87,275.59
0.63,-1.33,-1.44,2.98,-1.38,0.37,-2.82,6.39,-2.47,-171.31
2.4,-1.86,1.42,2.56,-1.2,1.1,-1.33,-6.8,0.12,177.04
0.8,-3.06,1.45,1.77,-0.15,1.52,-2.84,5.49,2.51,-29.22
0.28,-0.32,0.92,2.75,-0.39,1.28,0.23,1.41,-3.85,272.15
2.13,-2.62,-0.11,2.65,-1.94,-1.37,-2.6,3.16,1.29,-221.16
1.78,-2.0,-0.77,2.23,-2.95,-0.04,0.23,3.44,-5.26,-87.09
0.03,-0.45,-1.47,1.64,-3.08,-0.96,-0.21,2.41,1.26,-257.83
2.38,-0.48,0.49,2.25,-0.28,0.12,0.41,-5.62,-3.94,280.18
0.21,-0.37,0.15,0.52,-1.86,1.26,-3.0,10.14,-1.47,-177.04
0.35,-1.5,-0.69,0.12,-0.29,-1.31,-0.66,-2.86,-6.27,-228.04
2.44,-2.32,-0.01,1.44,-1.36,-0.61,-2.36,5.51,3.26,-159.28
0.1,-0.93,-1.42,0.2,-1.87,0.98,-0.65,-5.03,-3.42,-205.69
2.26,-1.84,-0.78,1.83,-2.62,-1.24,-0.47,0.08,-0.13,-163.87
1.32,-1.25,0.69,0.31,-0.64,-1.41,-1.98,7.33,5.03,-169.6
2.29,-2.37,-0.87,0.46,-2.58,0.11,-2.66,1.52,-0.62,-322.0
1.64,-2.84,0.24,0.04,-1.48,-0.31,-0.32,-2.92,-6.89,-173.61
1.61,-0.53,-0.18,2.64,-1.2,-0.27,-1.13,-1.13,11.7,53.86
1.78,-3.11,-0.19,0.23,-0.05,-1.18,1.19,0.03,-11.2,-76.2
1.94,-1.86,1.01,0.13,-0.57,0.04,0.23,9.04,12.19,52.71
0.12,-0.36,1.18,1.09,-0.28,-1.11,0.29,8.33,9.92,53.29
2.36,-1.28,0.69,2.73,-1.41,0.03,1.25,-7.45,1.8,250.38
3.01,-0.3,-0.76,1.16,-1.14,0.37,-0.18,-12.27,9.95,123.76
2.76,-2.4,1.34,0.77,-2.7,-1.12,-1.76,-1.78,2.76,-178.19
1.63,-2.55,-1.29,1.97,-3.02,-1.15,-0.01,-1.64,2.98,-253.25
2.14,-3.01,0.28,1.26,-1.4,-0.48,0.17,8.31,-5.81,-59.59
2.33,-2.88,0.07,1.99,-1.7,-1.22,1.46,8.13,-0.97,2.86
2.82,-1.66,-0.38,3.09,-2.4,1.53,-1.59,-3.28,8.48,80.79
1.02,-3.1,0.9,1.04,-2.91,-0.68,1.04,-3.3,-2.65,-154.13
0.71,-2.66,1.51,1.59,-0.12,-0.09,-1.24,9.4,3.95,-17.19
0.9,-1.25,-0.47,0.26,-0.22,-0.57,-1.24,7.92,-7.56,-148.4
2.99,-0.51,-0.31,0.98,-1.62,-1.12,1.2,-6.06,9.95,92.25
2.72,-0.99,0.62,0.76,-1.1,0.49,0.02,-12.03,10.56,144.39
1.44,-0.46,0.17,1.65,-0.14,1.32,-2.63,-2.96,9.41,77.35
0.88,-0.88,-1.21,1.84,-2.9,-1.45,-2.25,5.67,1.28,-342.06
2.69,-2.84,-0.31,2.28,-1.71,-0.01,1.23,7.41,4.98,76.2
1.93,-2.35,-0.97,2.17,-0.61,0.34,-2.24,7.88,-0.2,-99.12
2.8,-1.79,1.48,0.08,-2.8,0.08,-1.8,-1.14,2.56,-111.73
2.87,-1.21,0.2,0.33,-2.27,-0.73,-0.47,0.14,3.19,-73.34
2.0,-2.12,-1.3,2.17,-1.69,-1.16,-2.51,3.6,-0.48,-264.13
2.57,-2.96,1.05,0.85,-3.06,-0.74,-1.35,-1.45,1.24,-208.56
1.66,-1.02,0.46,2.23,-1.37,-1.08,-2.3,1.48,7.51,-81.36
1.69,-1.05,1.25,1.84,-0.27,0.4,-0.92,-7.86,3.03,168.45
1.95,-0.27,1.38,2.28,-0.44,0.02,-0.49,-1.94,-4.32,253.82
1.45,-1.38,1.41,2.18,-1.54,0.86,0.59,-5.2,5.4,204.55
2.05,-2.18,0.98,2.9,-0.16,-0.27,-0.26,-6.28,1.02,175.33
0.83,-2.09,-1.02,1.72,-1.67,0.91,1.31,4.53,-8.18,-0.57
0.91,-1.02,0.75,1.99,-1.24,1.12,0.03,0.22,9.77,145.53
2.02,-2.72,-1.47,2.25,-0.74,0.26,-2.66,3.69,-3.93,-175.33
2.9,-0.66,-0.79,1.04,-0.48,-1.46,-1.13,-2.51,8.76,-33.23
2.4,-1.51,1.47,1.92,-0.37,-0.55,1.43,-7.14,-1.65,274.45
0.41,-2.55,-0.3,2.06,-0.95,0.94,-2.63,1.78,-7.33,-173.03
0.73,-0.84,-0.16,1.02,-0.23,-1.07,-1.09,12.71,-0.13,-93.97
2.83,-0.13,-1.11,2.5,-2.29,-0.46,-0.01,-5.55,9.6,76.2
2.77,-1.57,-1.41,2.09,-2.96,-0.39,-2.02,-0.66,1.26,-199.96
2.69,-1.35,1.46,0.66,-0.64,-0.21,-1.46,-9.91,7.92,65.89
1.69,-1.61,0.46,2.78,-1.33,0.26,-1.14,0.4,9.99,63.6
2.85,-2.07,-1.55,1.57,-1.48,-0.38,-1.61,3.86,-2.36,-152.98
1.09,-0.78,-1.1,2.42,-2.68,-0.09,0.91,9.87,-1.31,-13.18
0.49,-0.45,-0.4,0.22,-1.67,-0.95,1.27,6.81,-5.8,-85.37
1.18,-0.95,-1.13,0.31,-0.38,-1.3,-0.01,5.19,-6.34,-130.63
0.81,-1.41,0.25,1.53,-2.55,-0.94,-0.63,3.45,-2.94,-168.45
2.11,-2.19,0.39,2.86,-1.18,0.02,-0.78,-0.15,9.54,70.47
2.08,-1.21,1.03,1.65,-0.75,-0.92,-1.89,-3.33,8.66,-0.57
1.08,-3.13,-0.46,1.02,-2.83,1.21,0.66,-7.17,-3.34,-140.37
0.55,-2.83,0.93,1.49,-0.63,-1.53,-1.49,2.31,-5.21,-201.11
0.06,-1.31,1.44,2.28,-2.89,1.27,0.56,8.11,3.13,80.79
0.1,-2.0,1.16,1.86,-2.02,-0.71,-2.62,4.91,-3.79,-242.36
3.03,-0.99,1.37,1.88,-0.19,0.95,-0.51,0.56,-4.83,317.42
2.05,-2.17,0.03,0.3,-2.81,0.37,-2.61,2.91,1.43,-277.31
0.36,-1.36,1.39,2.16,-1.8,-0.56,0.23,10.49,4.32,24.06
2.85,-1.4,0.71,1.76,-2.96,0.21,-2.7,-2.75,5.38,-87.66
0.11,-1.69,1.09,0.36,-1.83,0.37,-2.62,4.95,-6.35,-241.22
0.61,-1.46,0.98,0.03,-0.07,-0.49,-2.37,11.11,-1.38,-158.71
0.39,-0.78,1.23,0.53,-0.91,0.8,-1.25,12.3,7.83,0.57
2.31,-2.52,-0.42,2.85,-0.55,-0.66,0.91,1.5,8.8,110.01
2.69,-0.22,0.16,1.72,-0.22,-1.57,-0.26,-12.4,2.68,131.78
1.03,-1.92,0.59,0.64,-0.47,0.01,-1.99,11.28,-2.47,-120.89
2.44,-1.83,-0.72,3.12,-0.49,1.29,1.49,-2.46,0.93,303.67
0.17,-1.34,0.34,2.45,-0.67,0.73,0.08,5.72,5.75,100.84
1.62,-1.26,0.77,2.87,-0.58,0.28,1.0,-2.91,-0.76,269.29
1.2,-2.94,1.13,0.86,-1.84,1.49,-0.8,8.95,-5.66,-51.57
1.88,-3.03,1.47,1.22,-1.12,-1.34,1.11,8.96,2.89,10.89
0.87,-0.41,-1.26,2.12,-1.64,1.01,0.43,11.6,6.7,64.17
0.14,-0.31,-1.32,0.62,-2.86,1.52,-1.06,0.7,-4.78,-187.36
2.79,-2.55,-1.0,0.8,-2.03,-0.4,-2.67,2.4,-1.81,-289.92
0.83,-1.48,0.17,0.12,-1.2,-0.47,-1.97,5.52,-4.55,-229.18
1.31,-1.9,-1.52,1.78,-0.34,1.13,-1.34,9.6,-4.3,-50.42
1.25,-0.6,-1.25,1.46,-2.92,0.89,-2.86,4.7,1.8,-230.9
0.38,-2.38,-0.61,0.68,-1.21,1.23,-2.42,-6.02,-5.0,-248.09
2.75,-3.04,1.44,1.17,-0.03,-0.02,0.52,-6.2,9.01,159.86
1.14,-1.67,-0.14,1.51,-2.63,0.87,-0.73,7.6,-5.6,-94.54
0.26,-1.04,0.63,1.6,-1.11,-1.38,-1.63,8.36,-1.47,-152.98
1.8,-1.09,0.16,2.15,-2.43,-0.85,-1.64,4.14,4.66,-108.86
0.69,-1.47,0.88,0.66,-0.78,0.93,-2.71,11.47,1.29,-103.13
2.57,-0.59,0.91,2.05,-0.99,0.08,-1.41,-10.43,-0.67,150.11
2.52,-1.71,-0.42,1.35,-2.48,-0.6,-0.57,3.17,0.2,-109.43
0.81,-1.85,0.89,2.08,-3.05,1.08,-2.73,5.84,-1.64,-158.71
1.4,-2.75,-0.84,2.7,-2.93,-1.24,-1.83,-0.59,0.58,-314.55
0.18,-2.58,-0.73,2.75,-0.91,-0.34,-0.39,-0.1,-9.35,-115.74
0.61,-1.32,-0.07,1.8,-0.58,-0.52,0.64,13.9,2.37,32.09
0.36,-0.83,0.09,0.33,-2.84,-0.1,-0.38,2.06,-1.74,-193.09
1.07,-2.2,0.08,2.39,-1.89,-0.88,1.23,9.02,-4.08,-11.46
0.14,-2.59,-1.45,0.88,-2.79,-0.1,-1.8,1.17,-0.25,-441.75
1.93,-2.15,-0.69,1.44,-1.15,1.11,-1.33,11.16,-1.05,-48.13
2.92,-0.88,0.92,1.39,-0.74,0.48,0.33,-11.32,-4.66,253.25
1.23,-0.99,1.56,2.41,-2.01,1.37,-1.61,-3.2,6.49,112.3
0.66,-2.75,-0.53,0.05,-2.24,1.2,-1.56,-4.42,2.62,-296.22
0.68,-1.01,-1.46,1.05,-0.22,-1.02,-0.07,4.9,-9.92,-117.46
2.69,-1.15,-0.5,1.52,-0.34,0.71,-1.58,-6.4,12.07,77.35
2.69,-0.18,-0.73,1.54,-2.99,1.14,0.8,-6.24,9.78,130.06
1.7,-1.39,-1.49,2.54,-0.49,0.57,0.9,3.73,9.56,134.07
0.26,-0.51,1.55,0.11,-2.62,0.7,-1.54,7.82,-0.88,-117.46
2.6,-1.72,-1.13,2.29,-0.75,0.66,0.36,-1.17,11.4,132.35
3.03,-1.97,-1.27,2.79,-2.38,-0.04,-3.09,1.54,3.64,-167.88
1.93,-0.45,-0.82,1.15,-1.44,0.84,1.04,2.37,13.98,128.92
0.64,-1.08,-0.5,0.73,-1.53,-1.4,-0.3,2.88,-3.85,-197.1
1.22,-0.04,-0.59,1.16,-0.97,1.51,1.12,1.16,11.49,195.38
0.92,-0.02,-0.86,2.57,-0.71,0.18,-2.3,3.82,9.32,-12.61
1.9,-3.12,1.34,1.18,-2.22,0.44,-3.07,4.64,0.58,-203.4
0.88,-2.35,-0.72,1.85,-0.4,0.41,-0.0,9.33,-6.74,-18.91
0.7,-2.26,-1.01,2.95,-1.75,-0.11,0.0,3.11,-8.74,-84.8
1.32,-1.22,0.07,1.39,-2.7,-0.25,-2.07,4.72,1.65,-198.24
0.66,-1.67,-0.15,1.14,-0.1,-0.37,-0.13,13.53,-5.85,-35.52
1.96,-2.87,0.07,1.18,-2.22,1.01,-0.32,6.39,-7.3,-68.18
1.38,-0.5,1.35,2.53,-1.92,0.99,0.67,-4.19,0.57,257.83
1.48,-1.35,0.76,2.68,-0.14,0.13,0.39,-4.4,0.18,226.32
1.76,-1.68,-0.77,2.15,-1.39,-0.89,-0.55,8.92,-0.55,-78.5
0.7,-0.42,-1.42,1.53,-3.14,-0.16,0.76,1.56,-2.64,-123.19
3.05,-0.42,0.26,1.13,-2.13,-0.22,-0.36,-9.07,7.43,75.06
1.2,-2.15,-0.89,2.32,-0.57,0.88,-2.22,8.51,-1.88,-81.93
2.39,-0.14,0.85,1.04,-1.42,0.84,0.89,-12.46,-0.75,254.97
2.0,-1.66,0.12,2.94,-1.21,0.04,-2.29,0.65,7.44,-3.44
1.02,-0.9,1.22,0.85,-0.52,1.22,-2.22,2.2,11.56,38.39
2.57,-0.89,-0.13,1.43,-0.79,-0.92,-1.77,-3.31,9.96,-28.65
1.4,-1.07,-0.88,0.68,-0.32,0.97,-0.93,14.1,3.2,-8.59
1.55,-0.91,-0.67,1.01,-1.83,0.54,-0.63,11.45,1.33,-53.86
1.49,-1.78,-1.55,2.32,-1.73,0.89,-1.82,5.85,-4.78,-124.9
3.1,-2.74,1.21,0.78,-0.81,0.97,1.11,-6.07,8.09,207.41
2.87,-1.76,0.21,3.06,-2.14,0.76,-2.02,-4.13,7.36,56.15
1.37,-1.64,0.5,2.82,-1.14,-1.22,-0.57,6.43,6.83,6.88
2.22,-1.42,1.23,0.03,-2.79,-0.43,-0.47,0.66,1.78,-93.39
2.57,-2.18,-0.96,0.25,-2.78,0.47,0.12,-2.01,-2.64,-143.81
1.16,-1.83,1.24,1.85,-1.76,0.56,-1.57,8.37,6.76,-20.05
2.86,-2.99,0.98,3.07,-1.31,0.5,-1.86,-3.92,4.21,71.62
0.45,-0.58,1.27,2.82,-2.54,-1.03,-0.48,9.24,4.41,-5.16
2.22,-2.41,-0.06,2.98,-2.87,-0.28,-1.92,4.09,-1.26,-134.07
0.92,-2.96,-0.03,2.01,-1.13,-1.01,-2.19,0.35,-4.56,-251.53
1.73,-1.16,1.22,1.85,-1.13,0.7,-2.63,-3.45,7.74,33.23
2.35,-2.85,-1.31,3.1,-2.11,1.51,-1.35,6.15,-1.22,-37.82
2.11,-0.02,0.62,2.03,-0.85,-0.09,0.77,-8.89,-2.84,261.84
0.15,-0.52,1.17,0.05,-0.26,-1.44,-0.02,13.53,0.74,-49.85
0.04,-1.33,1.43,0.96,-2.9,-1.1,-1.47,2.97,-0.4,-250.38
2.78,-2.43,-0.67,1.87,-0.54,1.54,-1.3,2.48,9.34,71.62
1.55,-2.02,1.54,1.44,-0.85,-0.7,-0.35,4.72,11.01,34.95
0.92,-2.32,1.45,1.75,-1.05,-0.16,1.23,7.16,7.6,104.28
2.36,-1.21,1.25,1.29,-3.03,-0.52,-2.41,-1.89,4.4,-130.06
2.35,-1.77,1.03,1.33,-0.79,0.52,0.23,-8.24,9.97,166.16
0.94,-2.98,-0.65,0.73,-0.87,-0.15,-2.43,-6.1,-2.87,-309.97
0.75,-2.42,1.45,1.81,-0.72,0.82,-1.96,7.7,4.9,-15.47
0.1,-2.4,0.24,0.73,-1.64,-0.66,-0.68,-5.41,-3.2,-246.94
1.65,-2.36,-1.22,2.41,-1.81,1.27,-2.4,4.19,-4.48,-140.95
1.51,-1.56,0.57,1.11,-1.41,1.05,-1.17,10.34,9.29,5.73
1.34,-0.83,-0.06,2.98,-2.73,-0.27,-0.82,9.1,5.73,-22.35
1.89,-0.58,1.3,0.15,-0.5,1.09,-1.02,-10.37,10.21,133.5
1.01,-1.17,0.83,0.84,-0.44,-0.91,0.25,11.87,9.35,23.49
2.43,-1.81,0.49,0.51,-1.71,0.38,-2.57,4.39,6.41,-130.63
0.6,-1.63,-1.56,1.93,-0.96,0.78,-2.82,2.57,-6.69,-209.7
2.35,-2.45,-0.94,0.23,-1.74,-0.77,-0.15,-3.18,-2.58,-198.82
2.28,-0.93,-0.51,3.06,-3.11,1.44,1.07,-3.47,7.84,189.08
1.44,-2.86,0.05,0.94,-0.43,0.69,-2.84,5.09,-6.13,-172.46
0.83,-2.61,1.13,0.26,-0.43,1.25,-0.38,11.95,-3.72,2.86
0.31,-3.02,0.29,1.13,-1.87,-0.41,-1.52,-4.93,-0.93,-291.64
0.39,-1.49,-0.85,1.57,-0.7,-1.13,1.38,6.22,-10.58,-47.56
0.95,-1.46,0.85,0.3,-1.15,0.02,-2.76,9.9,1.01,-186.21
0.66,-1.79,-1.28,0.51,-1.49,0.35,-2.38,-2.91,-2.5,-310.54
2.76,-0.72,-0.21,1.21,-1.42,0.37,-0.96,-6.43,12.75,59.01
0.48,-1.15,-0.1,0.64,-0.24,1.13,-2.57,12.0,-4.07,-103.71
1.07,-2.08,1.26,2.99,-3.0,-0.68,0.35,9.64,-0.25,-5.16
2.58,-1.07,-0.47,2.94,-1.88,-0.74,-0.8,-0.99,10.05,32.09
3.01,-2.48,-0.22,0.22,-2.49,0.61,-0.49,3.15,-3.54,-105.42
1.15,-0.91,-0.53,0.3,-0.37,-0.57,-3.04,10.49,1.14,-227.46
0.32,-2.11,-0.26,0.99,-2.99,-1.04,-1.41,3.72,-2.3,-372.42
0.92,-2.79,-1.17,1.19,-0.95,-0.9,1.46,-8.43,-4.53,-128.34
2.7,-2.15,0.15,0.38,-3.05,0.52,0.5,3.75,-0.63,-54.43
2.49,-2.64,0.38,1.89,-2.53,-0.38,-0.27,6.89,-1.11,-60.73
2.72,-0.41,-1.43,2.04,-1.22,0.65,1.36,-9.0,8.26,212.57
2.41,-2.49,-1.04,2.67,-0.54,0.82,-1.87,4.96,6.15,-2.29
0.78,-0.74,-1.49,2.46,-0.97,-0.84,-2.07,7.74,-0.87,-164.44
1.4,-2.73,1.34,1.38,-1.28,0.09,-1.31,10.02,1.05,-63.6
2.79,-2.78,-0.98,2.78,-1.85,0.99,-3.11,3.54,1.11,-123.76
2.67,-1.14,-0.35,1.1,-0.44,0.88,0.64,-8.19,10.73,192.51
1.34,-0.49,1.47,2.24,-2.55,-0.73,0.19,0.05,10.82,84.22
0.27,-2.77,0.72,1.56,-2.88,-1.53,-2.18,1.78,-2.69,-390.18
1.15,-0.41,-0.37,1.23,-0.69,-0.52,0.53,10.49,12.28,52.71
2.94,-0.54,-0.16,2.38,-2.62,-1.22,0.32,-4.2,7.92,63.03
2.18,-2.64,-1.21,0.5,-0.27,0.47,-0.01,4.67,-10.47,-56.15
2.1,-1.93,-1.42,1.43,-1.95,0.08,0.43,4.42,-6.66,-72.19
0.39,-1.47,0.56,0.63,-2.57,-0.43,0.16,1.49,-5.42,-156.42
1.58,-1.74,-0.79,2.57,-0.61,0.59,-0.63,6.45,9.24,55.58
1.49,-2.72,0.91,0.29,-0.03,-0.44,-1.57,9.4,-4.27,-118.6
0.66,-2.58,0.21,1.48,-1.5,-1.2,1.55,0.84,-9.31,-79.07
1.41,-1.21,-0.59,0.5,-0.73,-0.54,-1.8,8.22,-1.91,-169.6
2.76,-0.42,0.81,1.79,-2.44,0.67,-0.9,-12.11,3.61,130.06
1.79,-2.11,0.14,1.92,-0.9,0.56,1.32,3.68,9.02,155.84
0.14,-0.85,0.17,2.5,-1.53,-1.04,1.07,12.13,0.47,26.36
3.09,-2.78,-1.11,2.82,-2.99,0.18,1.05,6.13,-1.85,14.9
2.36,-1.0,-0.4,0.59,-2.35,-0.93,1.16,3.68,3.14,-32.66
0.63,-0.72,-1.16,0.56,-1.35,-0.19,1.13,5.7,-9.15,-63.03
3.02,-1.52,1.23,0.56,-2.32,-1.33,-1.74,-4.58,2.45,-120.32
0.17,-3.02,-0.21,2.72,-1.74,-0.39,-1.01,-5.6,-4.24,-199.39
0.92,-1.36,-0.56,0.35,-1.62,1.23,-2.84,4.93,-5.08,-222.31
0.62,-1.04,-0.69,2.06,-1.49,-1.25,-1.52,6.02,-3.08,-189.65
0.01,-0.7,-0.64,0.3,-2.53,0.62,-2.15,2.5,-3.3,-291.64
1.7,-2.14,1.2,2.49,-2.46,-0.02,0.29,6.04,8.56,60.73
0.55,-2.24,0.98,1.03,-1.4,0.63,-0.78,10.37,-7.67,-70.47
0.12,-1.46,0.78,0.19,-1.96,-0.01,0.39,3.12,-10.3,-111.73
0.89,-2.07,0.13,0.58,-0.43,0.23,0.2,11.74,-8.31,-26.93
1.38,-1.39,-0.07,2.16,-2.28,-1.01,-0.77,6.59,-0.72,-113.45
0.75,-1.71,-0.7,1.44,-1.68,0.63,1.17,7.9,-8.38,-5.73
0.66,-1.18,-0.33,1.95,-0.42,-1.46,0.77,13.15,0.43,-0.57
0.84,-1.89,0.0,1.77,-0.78,1.05,-1.49,12.1,-0.09,-28.65
1.83,-2.29,-0.5,0.76,-1.55,0.5,0.34,7.36,-8.04,-52.14
2.11,-1.7,-1.27,1.16,-0.99,0.25,-1.36,8.65,-3.1,-103.13
0.19,-0.68,0.8,2.36,-0.64,-0.26,0.63,1.37,7.57,137.51
2.79,-0.84,0.32,0.9,-0.87,0.62,-0.91,-12.55,9.7,115.16
0.6,-1.62,-1.03,0.21,-0.52,1.4,1.28,3.59,-8.37,18.33
0.83,-3.14,1.56,1.0,-0.61,-1.34,-2.48,5.0,-2.29,-239.5
3.07,-3.05,1.5,2.21,-2.03,1.4,1.25,-5.65,1.58,249.24
0.52,-1.22,-0.84,3.11,-0.21,0.79,-1.1,4.56,6.34,60.16
1.07,-0.78,1.41,2.17,-2.36,-1.03,-0.3,6.24,7.82,10.31
1.04,-1.91,0.16,0.9,-0.9,-0.82,0.76,11.02,-6.78,-44.12
2.43,-2.0,0.48,2.38,-0.6,0.75,-1.36,-6.42,6.82,119.18
2.98,-1.97,-0.17,0.39,-0.67,0.2,-2.75,4.28,7.5,-114.02
0.07,-2.55,0.7,1.6,-0.88,0.33,-1.74,3.59,-9.66,-141.52
2.92,-3.08,-1.16,2.08,-1.65,-1.09,-2.98,3.65,-2.36,-284.19
0.08,-2.38,1.38,1.5,-2.73,-0.86,1.11,-0.22,-7.07,-108.86
1.41,-0.23,0.14,1.86,-2.84,-0.41,-1.84,3.49,5.41,-109.43
0.3,-2.76,-0.21,1.08,-1.77,1.07,-1.55,-7.83,-4.2,-220.02
1.72,-1.68,1.49,1.5,-1.36,0.76,-3.0,-0.29,8.12,-32.66
1.89,-3.13,0.7,1.79,-2.56,1.21,-2.29,4.27,-3.28,-136.94
0.51,-3.05,1.26,1.88,-1.57,1.02,-2.81,4.49,-4.05,-158.14
0.09,-1.09,0.95,1.92,-2.55,-0.76,0.29,8.89,-5.95,-65.89
1.93,-1.7,-0.42,2.23,-0.67,-0.48,1.44,3.23,10.87,133.5
2.35,-2.75,0.61,2.52,-0.14,0.98,0.71,-4.75,0.33,245.23
0.45,-1.34,1.11,1.5,-0.46,1.09,-0.9,5.2,8.8,83.08
2.75,-3.08,0.1,2.89,-1.87,0.74,0.75,0.51,6.9,130.63
1.11,-3.14,-1.03,1.8,-2.28,-1.05,0.78,-6.3,2.41,-218.3
1.12,-0.64,0.66,1.35,-0.81,-0.06,-0.16,2.24,14.66,83.65
2.47,-1.39,-1.55,3.03,-3.14,-0.81,1.43,4.4,0.27,2.29
1.02,-1.14,1.19,1.86,-1.35,1.41,-0.81,-1.38,9.48,124.9
1.46,-2.31,-1.19,0.88,-0.74,0.63,0.99,4.13,-9.36,-16.04
0.6,-2.84,-0.43,0.19,-1.23,-1.07,-2.17,-3.66,-0.93,-398.21
2.53,-2.81,1.03,0.57,-1.95,1.48,-0.99,8.95,4.93,-8.02
0.99,-2.0,-0.71,1.62,-3.0,0.95,-1.93,-0.53,-2.93,-233.77
2.5,-0.64,0.82,1.45,-1.93,-1.36,0.09,-4.64,8.8,53.29
1.38,-0.66,0.63,2.23,-1.5,-1.52,0.76,2.16,11.41,75.63
1.99,-0.34,1.19,0.22,-1.77,-0.04,0.75,-5.65,12.77,114.59
2.15,-1.94,-0.64,3.12,-1.6,-0.52,0.91,4.59,8.72,84.8
2.86,-1.35,1.5,0.04,-2.88,1.3,0.51,-5.5,8.95,113.45
0.64,-1.95,0.23,0.65,-0.03,0.77,-2.19,9.96,-6.9,-107.72
0.18,-3.11,1.51,0.15,-1.87,-1.17,-1.7,0.06,-1.97,-344.35
1.26,-2.98,1.21,1.87,-0.68,-1.11,1.41,8.71,3.74,56.15
1.6,-1.84,1.22,0.72,-0.53,-0.3,1.52,4.19,12.38,136.94
2.15,-1.48,-1.52,2.74,-2.63,0.53,1.11,7.3,3.89,51.57
1.31,-2.06,-0.08,0.79,-1.86,0.76,-1.24,5.09,-7.6,-136.36
2.52,-0.67,-0.47,1.37,-1.13,0.93,-1.78,-4.96,12.9,44.12
1.95,-1.73,1.38,1.72,-1.35,-0.26,0.45,-3.73,11.78,123.76
0.96,-1.32,0.21,2.95,-0.49,-0.12,-2.85,2.73,3.98,-37.82
0.39,-1.71,-1.28,0.04,-0.18,0.76,-0.32,-6.26,-9.27,-131.78
2.27,-2.93,1.23,2.12,-1.12,-1.53,-2.36,1.02,3.59,-132.93
2.26,-2.64,1.07,0.09,-0.08,-0.23,0.47,10.05,9.11,53.86
2.5,-2.94,0.96,3.11,-2.01,-0.09,0.13,-0.02,7.99,95.11
0.71,-1.9,-0.79,2.49,-1.54,0.56,1.39,9.04,-3.05,52.71
1.28,-1.29,0.66,0.82,-3.07,-0.02,-3.04,5.13,3.87,-267.0
0.32,-0.19,-0.36,0.01,-2.34,1.25,0.74,10.39,-5.14,-32.66
0.86,-0.74,-0.64,0.99,-2.43,0.66,-1.83,5.73,-2.67,-179.34
1.98,-0.32,-1.36,1.18,-1.39,-1.56,-2.91,3.32,8.11,-250.96
2.58,-0.22,0.4,2.58,-0.44,0.74,1.25,-0.22,-0.53,394.77
0.01,-0.56,1.18,0.32,-3.04,0.82,0.07,8.51,-4.66,-68.75
2.86,-2.99,-0.83,0.72,-2.99,0.3,0.29,-3.19,-3.78,-151.26
0.27,-2.38,0.84,2.05,-2.54,-1.22,0.24,-1.59,-5.94,-156.99
2.25,-2.01,1.04,1.18,-1.2,-0.52,0.96,1.92,13.05,97.4
1.08,-2.38,-0.54,1.43,-2.23,1.26,-0.55,0.88,-9.61,-110.58
2.33,-2.49,-0.19,3.01,-0.82,-0.36,-0.72,2.25,8.34,43.54
1.03,-0.91,-0.02,0.67,-2.32,1.0,1.32,12.03,2.37,44.12
2.7,-1.29,1.09,3.06,-1.17,0.4,0.74,-0.76,-3.2,316.85
2.94,-2.58,0.52,2.1,-1.81,-0.94,-2.45,0.91,4.59,-127.2
1.0,-0.79,0.44,2.33,-0.41,0.23,-2.49,1.24,7.49,17.76
1.78,-1.51,0.99,0.44,-3.01,0.86,-2.29,2.93,3.49,-156.99
0.14,-2.05,1.29,2.21,-0.81,-0.23,-2.1,7.59,-0.4,-88.81
2.49,-0.66,0.96,3.0,-2.01,-0.78,-1.49,-7.1,4.97,86.52
2.91,-2.38,-0.18,2.74,-0.93,0.94,-2.27,-2.62,6.85,47.56
0.76,-1.98,0.12,1.45,-1.88,-0.3,0.04,5.07,-9.35,-102.56
1.18,-2.43,-1.08,0.48,-1.85,0.5,0.87,-7.01,-4.62,-133.5
1.12,-2.22,1.32,3.07,-2.39,-1.22,-3.04,3.68,1.91,-192.51
2.38,-3.05,0.63,1.84,-1.54,-0.08,0.48,8.93,5.13,37.82
0.33,-2.91,1.5,2.52,-1.68,-1.12,-1.19,2.63,-4.68,-146.1
2.92,-1.11,1.2,1.76,-1.96,-1.07,-0.43,-7.51,6.5,75.06
1.41,-0.54,-0.01,2.82,-0.62,-1.12,-1.24,0.02,9.14,40.11
1.74,-0.58,-1.24,2.07,-1.74,-0.22,-1.51,7.2,5.04,-84.8
2.91,-0.69,0.66,2.61,-0.82,0.28,-1.77,-6.62,-3.59,182.2
2.21,-2.3,1.22,3.13,-1.73,0.73,-2.33,-2.06,4.94,53.29
1.11,-3.1,-0.18,2.28,-2.63,-1.24,-1.26,-2.14,0.54,-287.62
0.52,-1.47,1.28,1.68,-1.77,-0.77,1.23,11.42,3.22,40.11
2.34,-2.71,0.85,0.04,-2.24,-0.44,-1.78,1.47,0.53,-225.75
0.57,-1.94,-1.44,2.13,-2.49,-1.12,0.1,-2.59,1.03,-240.07
1.85,-2.92,0.99,0.76,-0.77,0.12,-1.45,10.31,-1.04,-81.36
0.8,-1.93,0.22,0.59,-0.99,-0.6,-1.78,4.4,-6.7,-211.42
0.77,-2.81,0.27,0.34,-2.54,-0.81,1.44,-3.45,-0.59,-191.37
2.86,-1.47,0.4,1.89,-1.31,0.99,0.4,-10.91,4.06,215.43
0.51,-2.34,-1.27,1.97,-1.98,-0.77,-2.99,-2.16,-3.34,-393.62
0.74,-0.04,0.06,1.58,-1.83,-1.17,-0.11,9.78,4.76,-44.12
2.99,-0.93,-1.18,3.01,-1.75,-1.2,-2.17,-2.92,4.58,-70.47
1.49,-2.36,0.3,1.98,-1.26,-0.12,1.14,10.27,4.45,67.04
1.19,-3.08,-1.02,0.8,-2.63,-0.74,-1.57,0.03,-0.21,-403.94
0.8,-0.93,1.41,1.5,-0.98,0.34,-2.11,3.18,9.36,1.72
0.64,-0.82,-0.34,1.93,-2.58,-0.76,-0.44,5.34,-4.11,-135.79
0.83,-0.14,-0.21,2.34,-2.99,-0.36,-2.63,5.58,3.74,-181.05
2.89,-0.74,1.49,2.62,-2.69,0.72,-1.8,-8.77,-0.34,142.67
1.18,-2.12,0.41,2.47,-2.29,1.04,0.08,9.75,3.83,44.12
2.12,-1.32,-1.24,0.03,-1.59,0.27,-1.37,1.06,-2.98,-177.62
1.87,-2.21,-0.24,2.09,-2.85,1.44,-3.14,4.44,0.24,-174.18
2.26,-2.36,-0.67,1.05,-1.05,1.32,0.84,9.47,2.66,79.64
1.57,-2.55,-0.7,2.91,-2.17,1.23,0.42,7.72,0.62,40.68
1.42,-0.17,1.04,2.57,-2.36,-0.97,-1.36,0.45,8.67,9.74
2.03,-0.34,-0.43,0.57,-2.25,1.44,-1.83,4.03,8.82,-46.41
1.91,-2.66,0.23,2.37,-3.02,0.44,1.57,6.98,-0.29,48.13
3.13,-3.03,-1.21,2.97,-2.18,0.64,-3.08,2.81,-0.5,-158.14
0.75,-0.11,-0.43,1.59,-3.1,0.52,-0.09,9.77,0.07,-49.85
0.04,-0.29,-1.21,0.42,-1.43,1.35,-0.02,6.64,-11.24,-65.32
1.77,-0.62,0.29,0.44,-1.48,1.12,-1.13,4.83,14.01,22.35
0.17,-3.04,-0.2,2.48,-1.61,0.35,-0.93,-4.86,-7.13,-159.28
1.09,-1.45,0.79,2.41,-0.38,0.02,0.49,-3.0,6.66,170.17
1.14,-0.12,-0.11,2.82,-2.96,-0.71,-0.46,8.4,5.9,-22.92
1.98,-1.49,1.39,0.06,-1.68,-0.48,-1.03,5.19,5.91,-71.62
2.25,-0.71,-1.17,1.3,-2.39,1.03,-0.63,7.22,6.16,-18.33
2.25,-2.7,0.86,2.62,-2.98,1.02,-2.4,4.78,2.02,-76.2
1.49,-0.96,0.55,1.07,-2.58,0.55,-0.39,9.33,6.64,-15.47
2.19,-1.67,0.95,0.5,-1.11,-0.39,-2.06,3.81,8.6,-91.1
1.57,-2.09,0.77,0.14,-1.67,0.56,-0.84,9.53,-3.72,-89.38
0.3,-1.58,-1.52,0.34,-2.16,-0.78,0.46,0.73,2.79,-283.04
2.45,-1.66,0.65,0.81,-3.04,-1.25,-0.21,-2.35,1.84,-128.92
2.69,-3.05,0.06,0.77,-1.93,0.16,-0.37,5.41,-6.78,-95.68
0.34,-0.57,0.7,1.28,-2.4,0.23,0.71,13.24,2.04,16.62
0.83,-2.74,1.5,2.93,-0.58,0.16,-0.52,-1.07,6.94,90.53
0.39,-2.68,-0.79,2.74,-1.38,0.88,0.27,3.93,-7.6,-32.66
1.73,-0.65,-0.87,0.44,-2.09,0.5,1.49,9.15,3.52,31.51
1.07,-1.83,0.84,0.52,-0.82,0.37,1.37,12.61,4.41,87.09
2.66,-0.8,0.35,0.6,-0.25,0.55,1.55,-11.5,5.33,267.0
0.26,-0.1,-1.17,2.28,-2.3,-1.09,0.67,7.24,-5.45,-83.08
2.79,-1.16,0.28,1.98,-2.73,-0.21,-3.12,-4.12,6.27,-124.33
2.95,-2.09,1.16,3.09,-2.3,-1.24,-2.31,-1.46,3.95,-42.4
1.37,-1.41,1.45,1.14,-2.67,-1.46,-1.57,1.28,3.43,-180.48
0.98,-1.47,-0.82,0.28,-2.43,-1.44,1.09,1.66,1.13,-218.3
0.62,-1.41,-0.7,1.06,-2.74,0.22,-0.02,-1.15,-4.69,-170.17
2.77,-2.2,-1.03,1.29,-0.01,-0.7,1.32,8.22,7.6,82.51
0.83,-2.59,1.17,2.78,-1.55,-1.53,-0.69,5.4,-2.92,-90.53
0.17,-0.75,0.67,0.95,-1.14,1.2,0.31,12.33,5.88,80.79
1.22,-2.51,-0.82,2.24,-1.96,-0.02,1.42,3.69,-7.74,-24.64
0.9,-0.62,1.54,2.12,-2.4,0.71,1.21,-2.27,6.94,198.24
0.6,-2.01,-1.53,0.96,-0.99,0.57,-1.67,-6.79,-3.96,-233.19
1.27,-1.05,-0.29,1.36,-0.28,1.16,-0.02,4.92,11.43,123.19
1.2,-1.16,1.35,1.5,-1.27,-0.26,-0.13,2.67,12.81,70.47
1.55,-0.36,-0.38,0.24,-0.57,-1.47,0.32,9.5,6.31,-38.39
2.05,-1.97,-1.1,2.98,-0.02,1.32,-2.87,0.63,5.59,22.35
1.56,-0.43,0.35,0.24,-2.01,0.18,0.1,8.33,8.71,-0.57
2.12,-0.47,-0.95,2.84,-1.98,0.38,-0.36,-2.79,12.6,90.53
1.62,-0.64,-1.36,2.59,-1.35,-0.47,-0.36,8.54,8.57,1.72
1.34,-2.0,-0.65,1.51,-2.23,0.37,1.01,6.3,-7.26,-37.24
0.09,-1.99,0.52,2.67,-0.93,-0.37,0.04,10.19,-1.26,1.72
1.67,-0.43,-0.64,0.48,-1.5,-0.55,0.87,9.99,5.14,-5.73
1.42,-0.09,-0.45,1.39,-0.92,-0.11,-2.37,3.38,11.28,-64.74
0.4,-0.34,1.24,0.16,-2.62,0.69,0.57,11.46,2.84,5.73
2.05,-0.31,-1.29,2.6,-0.0,-0.15,0.24,-9.23,6.83,179.91
0.83,-0.39,1.08,0.38,-2.29,-1.07,-1.85,3.39,4.76,-189.65
0.97,-2.89,-0.35,3.14,-0.54,1.08,-1.33,5.82,3.19,4.58
0.86,-2.83,-1.27,1.33,-1.69,-1.5,1.28,-5.9,2.47,-218.87
3.04,-1.73,1.34,1.19,-2.5,0.72,-1.56,-4.37,8.08,28.65
1.25,-1.6,0.91,3.11,-1.24,-1.5,-0.45,4.91,6.37,27.5
1.52,-0.44,-0.69,1.29,-3.05,0.14,0.63,6.74,1.92,-34.38
2.89,-2.89,-1.46,0.97,-3.02,-1.23,0.35,-0.49,2.73,-251.53
0.98,-2.67,-1.21,2.94,-2.46,-1.37,0.61,-5.2,-0.95,-182.2
1.32,-2.86,0.07,0.81,-0.17,0.92,-0.76,9.06,-7.27,-38.39
0.97,-0.45,-1.31,1.99,-0.86,0.89,0.4,9.29,9.54,93.39
2.88,-0.28,0.65,2.04,-2.58,0.9,-0.19,-12.58,-1.2,195.95
1.45,-2.76,0.54,2.82,-0.33,-0.71,-3.12,1.26,2.99,-120.89
1.24,-0.92,1.4,0.15,-2.78,0.99,0.93,7.43,8.36,57.87
0.17,-0.74,-1.07,1.89,-0.91,-0.2,0.82,12.92,-6.33,-2.29
0.46,-0.38,-0.85,1.54,-2.09,-0.61,1.07,9.69,-5.35,-49.27
2.63,-0.47,-1.42,2.13,-1.99,1.56,-2.45,-1.95,9.17,-0.57
1.62,-1.37,0.46,1.33,-2.86,-1.11,-2.71,3.71,5.3,-265.85
0.96,-0.56,-1.16,2.93,-1.73,1.35,-1.39,8.16,7.84,22.92
2.89,-1.12,1.05,1.77,-1.0,0.14,1.5,-8.69,-3.26,299.66
0.43,-0.42,-0.03,1.42,-2.48,1.29,-0.42,13.77,1.28,-12.03
2.59,-1.67,0.63,2.72,-2.61,-0.61,1.5,-2.69,9.59,146.1
1.84,-0.01,0.52,0.7,-1.81,0.47,-0.68,-3.8,13.82,59.01
0.81,-2.4,0.31,0.17,-1.32,0.44,1.36,2.61,-10.71,-36.1
2.34,-0.68,-0.73,1.35,-1.08,0.19,1.32,-3.01,14.02,155.27
0.5,-1.47,1.23,2.57,-1.86,1.23,-0.9,4.25,7.04,74.48
2.16,-0.82,0.55,0.45,-1.46,1.24,-1.59,-0.9,14.01,30.37
2.65,-2.59,0.89,2.02,-2.26,0.18,-2.53,2.58,4.87,-93.97
2.11,-1.99,1.41,1.84,-1.09,0.13,1.22,-6.83,6.77,207.98
2.43,-1.79,0.14,0.73,-1.31,1.02,-1.98,7.16,8.5,-43.54
1.69,-1.86,0.52,2.92,-0.49,-1.43,0.44,-0.3,8.36,102.56
1.44,-0.92,-1.54,1.29,-0.64,0.1,-0.2,13.18,-0.45,-26.93
0.83,-1.13,-1.44,2.72,-1.67,1.22,-1.37,10.8,-1.47,-48.13
0.76,-0.28,1.23,2.03,-2.99,-0.91,0.57,8.21,6.25,23.49
0.89,-0.77,-0.14,0.93,-1.44,-1.16,-0.77,8.01,-1.16,-140.95
2.97,-2.5,0.36,2.77,-2.1,-0.17,-2.62,0.68,4.82,-73.91
2.73,-1.16,-0.69,2.94,-2.37,-0.32,-0.22,0.26,10.57,52.14
2.12,-3.01,1.39,0.61,-1.63,-0.77,-0.8,5.2,-2.19,-119.75
2.75,-2.48,-0.29,0.28,-2.82,0.89,0.16,2.83,-4.14,-86.52
0.74,-0.24,-0.36,2.25,-2.87,-1.11,-1.6,4.36,1.41,-182.77
2.24,-1.6,0.79,0.26,-1.13,-0.06,-1.25,6.65,9.23,-42.97
1.55,-2.66,-1.16,2.08,-1.64,-1.33,-1.68,-0.81,-2.02,-277.31
1.74,-0.14,0.27,1.28,-1.76,-1.37,-2.85,-3.16,9.07,-162.15
2.9,-2.21,-0.86,0.74,-0.71,1.23,0.54,7.55,7.48,93.39
2.08,-1.06,0.08,2.37,-2.65,1.03,-1.2,1.86,11.48,37.24
2.36,-0.31,1.51,1.99,-2.59,-0.01,1.24,-9.51,0.05,240.07
1.33,-0.06,-0.94,0.66,-3.03,-1.39,-3.02,4.01,5.78,-369.56
2.63,-0.24,-0.29,2.96,-1.76,-0.96,-0.89,-8.32,6.62,83.08
1.72,-0.02,-1.18,1.67,-0.37,-0.08,-1.04,0.9,14.73,40.11
0.83,-1.2,1.2,0.42,-0.15,-1.29,1.0,11.81,8.72,46.41
1.58,-2.11,-1.33,2.31,-2.08,1.05,-0.62,6.52,-6.27,-68.75
1.02,-2.64,1.27,2.52,-2.73,0.57,-2.49,4.77,-2.0,-142.09
2.47,-0.99,-0.52,2.66,-1.51,-0.03,-1.42,-3.04,10.8,37.82
1.26,-1.53,-0.22,2.7,-0.5,-1.32,-1.78,6.3,3.51,-79.64
1.46,-0.64,-1.04,1.22,-2.16,1.5,0.32,11.1,5.95,37.82
2.28,-0.84,0.85,0.24,-1.11,0.58,-0.05,-6.59,14.76,111.73
2.61,-0.69,-0.75,0.65,-2.74,0.1,-2.87,-1.56,5.83,-211.42
1.23,-0.03,0.92,2.17,-1.33,0.06,0.21,-8.02,5.07,185.07
0.42,-2.82,1.22,0.25,-2.13,0.26,-0.61,-4.37,-5.36,-195.38
2.16,-1.66,0.2,1.24,-1.24,-1.53,0.32,7.6,5.76,-29.22
1.25,-1.58,0.2,1.56,-1.89,-1.53,1.24,9.03,-1.38,-42.97
1.33,-0.39,1.06,0.56,-1.19,-1.06,-2.35,0.69,9.08,-116.88
1.49,-0.81,0.72,0.58,-1.27,1.1,0.5,1.2,14.73,132.35
0.92,-1.74,1.41,2.23,-1.11,-1.55,-1.15,6.42,3.13,-56.72
1.93,-2.54,-0.24,1.74,-2.3,-0.67,-2.73,3.82,-1.19,-275.59
0.9,-1.71,0.67,1.84,-2.74,-0.87,-1.13,3.38,-2.49,-174.18
1.53,-2.84,-0.25,1.23,-3.03,-1.22,-0.57,1.43,2.06,-295.07
1.78,-1.84,-1.1,1.7,-3.09,-0.68,0.8,-1.34,-1.52,-139.23
0.26,-0.48,0.67,0.15,-2.41,-0.28,0.88,8.22,-4.34,-69.33
1.23,-2.51,1.11,1.18,-0.37,-0.77,-2.47,7.69,1.54,-148.97
0.08,-1.94,1.49,0.62,-1.89,-1.31,-1.97,4.42,-3.01,-281.9
0.8,-1.65,-0.97,2.08,-0.64,-1.24,-1.11,5.1,-6.29,-156.42
0.21,-1.26,1.03,1.37,-1.16,-1.15,-3.11,9.13,1.17,-233.19
1.38,-1.43,0.46,0.67,-0.82,0.92,1.52,7.55,9.55,154.7
0.1,-0.99,0.98,1.47,-0.43,-0.73,-0.81,12.24,3.27,-23.49
1.72,-1.5,1.09,0.75,-1.33,-0.16,-2.48,4.67,8.3,-109.43
2.63,-1.26,-0.86,2.35,-1.04,0.62,-0.95,-4.23,12.12,85.37
1.81,-2.45,-0.67,3.05,-2.51,-0.41,0.74,6.65,-4.13,-25.21
2.46,-1.93,0.82,1.67,-0.82,-0.03,-2.78,-2.55,8.23,-34.95
1.47,-2.03,0.36,0.54,-0.94,0.51,-0.84,13.22,-2.14,-53.29
0.58,-0.92,-0.8,2.82,-1.4,1.1,-0.88,10.29,5.09,28.65
1.58,-0.98,-0.6,1.89,-2.52,-1.23,0.65,5.95,0.08,-69.33
0.05,-0.23,-0.12,2.09,-2.98,0.38,-0.97,8.93,-5.2,-101.99
0.72,-1.93,-1.04,1.01,-0.54,0.64,-0.87,1.47,-11.98,-115.16
0.18,-0.97,-1.27,0.37,-0.61,-1.21,0.86,-3.45,-8.16,-151.83
2.35,-2.02,-1.5,2.22,-1.31,1.32,0.73,5.92,6.43,102.56
2.03,-2.67,-1.18,0.13,-1.66,1.51,-1.04,-5.54,-6.7,-165.01
2.59,-0.84,0.51,0.77,-1.91,-0.79,-2.63,-4.86,7.17,-131.78
2.49,-2.19,-1.09,3.13,-0.74,0.94,0.9,-4.1,5.45,197.1
0.35,-2.67,0.77,2.41,-0.51,-0.89,-2.35,4.4,-2.63,-165.58
2.88,-2.23,1.11,1.82,-0.4,-0.08,-2.37,-6.29,5.23,41.83
2.98,-0.75,-0.48,2.79,-1.09,0.3,0.4,-10.64,-1.93,237.78
0.93,-2.15,-0.74,2.21,-1.56,0.65,-0.65,7.09,-8.4,-75.06
1.25,-0.45,1.04,2.65,-1.54,-0.17,-1.64,-2.43,7.77,65.32
2.69,-1.57,-1.14,1.72,-2.73,-1.42,1.09,0.9,-0.41,-77.92
0.79,-2.86,1.06,0.96,-1.46,0.34,-2.08,3.03,-7.19,-186.21
0.47,-2.13,-1.11,2.16,-3.03,0.8,-2.47,-1.45,-1.18,-304.24
1.96,-2.87,-0.67,2.61,-1.44,0.14,-1.52,6.01,-4.12,-102.56
1.54,-1.66,-1.32,1.76,-3.04,1.54,-2.7,2.08,-1.14,-222.31
3.03,-2.44,0.83,1.06,-1.88,-0.84,-1.97,1.0,4.49,-126.62
2.27,-1.93,-0.17,2.1,-2.45,0.49,-3.11,4.09,4.56,-160.43
0.88,-2.76,1.49,1.1,-2.18,-0.25,0.72,6.27,-6.84,-57.3
0.15,-0.75,-0.64,0.67,-0.69,-1.41,0.97,5.67,-10.75,-97.4
1.29,-1.94,-0.01,0.57,-0.59,-0.97,0.85,10.64,-6.73,-45.84
1.32,-0.13,-0.23,2.57,-2.64,0.3,-2.8,3.07,7.61,-92.25
1.08,-1.15,-0.06,1.34,-1.15,0.1,-2.5,10.26,2.8,-134.07
1.12,-2.4,0.91,2.93,-1.85,0.14,0.81,5.37,6.32,95.11
0.01,-0.23,-1.11,2.81,-1.48,-1.53,-1.51,5.88,-3.21,-174.18
1.72,-1.88,0.13,3.08,-2.11,0.36,-3.09,3.71,4.22,-102.56
0.61,-2.03,0.81,2.99,-1.06,0.06,-0.11,4.5,6.52,72.77
1.6,-2.64,1.46,2.17,-2.85,-1.5,1.08,5.24,-2.0,-38.96
2.68,-2.68,-1.3,2.73,-1.29,0.15,-0.94,8.14,0.73,-37.24
1.42,-0.48,-1.16,2.51,-1.96,-0.66,-0.25,9.46,4.46,-33.23
1.85,-2.84,-0.35,1.44,-1.22,0.24,0.27,8.47,-7.48,-34.95
0.79,-0.33,1.36,3.11,-0.24,-0.32,-2.63,2.61,0.48,99.69
0.32,-1.16,-1.42,0.93,-0.67,-0.61,-1.94,-0.55,-6.51,-260.7
0.38,-2.41,0.79,1.4,-1.1,-1.01,-1.41,2.6,-7.08,-192.51
1.22,-2.53,-0.7,1.27,-2.02,-0.81,1.21,-4.08,-5.67,-135.22
0.32,-1.9,-0.38,0.0,-0.18,1.18,-2.93,-1.29,-8.79,-222.88
2.71,-0.79,0.19,0.75,-0.92,-1.09,0.66,-5.91,12.94,86.52
3.02,-1.73,0.79,2.91,-2.76,-0.74,1.44,-6.1,7.48,167.88
